; generated by PrusaSlicer 2.6.0-alpha3+win64 on 2023-02-10 at 03:43:42 UTC


;
;
; 

; external perimeters extrusion width = 1.00mm
; perimeters extrusion width = 1.00mm
; infill extrusion width = 0.90mm
; solid infill extrusion width = 0.90mm
; top infill extrusion width = 0.80mm
; support material extrusion width = 0.70mm
; first layer extrusion width = 0.90mm

M73 P0 R6
M73 Q0 S6
M201 X1100 Y800 Z200 E5000 ; sets maximum accelerations, mm/sec^2
M203 X200 Y200 Z12 E120 ; sets maximum feedrates, mm / sec
M204 P1250 R1250 T1250 ; sets acceleration (P, T) and retract acceleration (R), mm/sec^2
M205 X8.00 Y8.00 Z0.40 E4.50 ; sets the jerk limits, mm/sec
M205 S0 T0 ; sets the minimum extruding and travel feed rate, mm/sec
M107
;TYPE:Custom
M862.3 P "MK3S" ; printer model check
M862.1 P0.8 ; nozzle diameter check
M115 U3.11.0 ; tell printer latest fw version
G90 ; use absolute coordinates
M83 ; extruder relative mode

M140 S60 ; set bed temp
M190 S60 ; wait for bed temp
M104 S220 ; set extruder temp
M109 S220 ; wait for extruder temp
G28 W ; home all without mesh bed level
G80 ; mesh bed leveling

G1 Z0.2 F720
G1 Y-3 F1000 ; go outside print area
G92 E0
G1 X60 E9 F1000 ; intro line
G1 X100 E12.5 F1000 ; intro line

G92 E0
M221 S95
G21 ; set units to millimeters
G90 ; use absolute coordinates
M83 ; use relative distances for extrusion
M900 K0.01 ; Filament gcode LA 1.5
; ; Filament gcode LA 1.0
M107
;LAYER_CHANGE
;Z:0.3
;HEIGHT:0.3
;BEFORE_LAYER_CHANGE
G92 E0.0
;0.3


G1 E-.7 F2100
M73 P1 R6
M73 Q1 S6
G1 Z.25 F720
G1 Z.3
;AFTER_LAYER_CHANGE
;0.3
G1 Z.55
G1 X113.153 Y89.299 F10800
G1 Z.3 F720
G1 E.7 F1200
M204 S800
;TYPE:Skirt/Brim
;WIDTH:0.9
G1 X113.739 Y88.606 E.09459
G1 X114.342 Y88.072 E.08395
G1 X115.638 Y87.312 E.15659
G1 X116.99 Y86.919 E.14674
G1 X117.948 Y86.839 E.10019
G1 X131.849 Y86.839 E1.4488
G1 X133.544 Y87.234 E.18139
M73 Q2 S6
G1 X134.647 Y88.052 E.14312
G1 X135.38 Y88.834 E.11171
M73 P2 R6
G1 X136.333 Y90.653 E.21402
G1 X137.745 Y97.246 E.70272
G1 X137.813 Y98.419 E.12246
G1 X136.067 Y116.473 E1.89042
G1 X135.51 Y118.122 E.1814
G1 X134.386 Y119.391 E.17668
G1 X132.8 Y120.345 E.1929
G1 X124.355 Y122.933 E.92057
G1 X123 Y123.149 E.14301
G1 X120.93 Y123.155 E.21574
G1 X119.87 Y123.032 E.11122
G1 X118.655 Y122.659 E.13246
G1 X117.639 Y122.122 E.11977
G1 X116.95 Y121.604 E.08984
G1 X116.151 Y120.778 E.11977
G1 X115.552 Y119.895 E.11121
G1 X114.978 Y118.536 E.15375
G1 X113.576 Y113.587 E.5361
G1 X112.049 Y93.109 E2.14021
G1 X112.108 Y91.852 E.13115
M73 Q3 S6
G1 X112.48 Y90.519 E.14424
M73 P3 R6
G1 X113.095 Y89.404 E.13271
M204 S1000
; printing object trigger.stl id:0 copy 0
;WIPE_START
G1 F8640
G1 X113.739 Y88.606 E-.23678
G1 X114.342 Y88.072 E-.18598
G1 X115.378 Y87.465 E-.27724
;WIPE_END
G1 Z.55 F720
G1 X124.45 Y93.795 F10800
G1 Z.3 F720
G1 E.7 F1200
M204 S800
;TYPE:Perimeter
;WIDTH:1.05046
G1 X124.395 Y93.824 E.00765
;WIDTH:1.00622
G1 X124.284 Y93.883 E.01477
;WIDTH:0.961976
G1 X124.088 Y94.056 E.02927
;WIDTH:0.930988
G1 X123.893 Y94.228 E.0281
;WIDTH:0.899999
G1 X123.675 Y94.603 E.04521
G1 X123.597 Y95.036 E.04585
G1 X123.597 Y103.916 E.9255
G1 X122.36 Y103.918 E.12892
G1 X121.902 Y103.936 E.04777
G1 X121.136 Y104.381 E.09233
G1 X121.146 Y103.294 E.1133
G1 X121.091 Y102.209 E.11323
G1 X120.985 Y101.203 E.10543
G1 X120.839 Y100.274 E.09801
G1 X120.632 Y99.281 E.10572
G1 X120.374 Y98.3 E.10572
G1 X120.065 Y97.334 E.1057
G1 X119.706 Y96.385 E.10575
G1 X119.299 Y95.457 E.10561
G1 X118.843 Y94.55 E.1058
G1 X118.341 Y93.67 E.10559
G1 X117.886 Y92.956 E.08824
G1 X117.81 Y92.768 E.02113
G1 X117.856 Y92.641 E.01408
G1 X118.068 Y92.586 E.02283
G1 X123.129 Y92.586 E.52747
;WIDTH:0.930988
G1 X123.559 Y92.601 E.04651
;WIDTH:0.961976
G1 X123.99 Y92.617 E.04828
;WIDTH:1.00622
G1 X124.169 Y92.639 E.02119
;WIDTH:1.05046
G1 X124.349 Y92.661 E.0223
;WIDTH:1.0947
G1 X124.528 Y92.683 E.02318
G1 X124.851 Y92.676 E.04152
;WIDTH:1.08067
G1 X127.315 Y92.676 E.31233
G1 X127.518 Y92.653 E.0259
;WIDTH:1.0355
G1 X127.72 Y92.631 E.02461
;WIDTH:0.990335
G1 X127.922 Y92.608 E.02348
;WIDTH:0.945167
G1 X128.124 Y92.586 E.02232
;WIDTH:0.899999
G1 X130.87 Y92.586 E.2862
G1 X131.909 Y97.434 E.51675
G1 X130.705 Y98.637 E.17739
G1 X130.441 Y99.027 E.04908
G1 X130.338 Y99.524 E.0529
G1 X130.345 Y103.601 E.42492
G1 X130.377 Y104.114 E.05357
G1 X129.704 Y103.979 E.07154
G1 X129.099 Y103.926 E.0633
G1 X128.569 Y103.92 E.05524
G1 X128.568 Y94.989 E.93082
G1 X128.465 Y94.536 E.04842
G1 X128.235 Y94.185 E.04374
G1 X127.838 Y93.897 E.05112
;WIDTH:0.945167
G1 X127.707 Y93.846 E.01544
;WIDTH:0.990335
M73 Q4 S6
G1 X127.577 Y93.795 E.01613
;WIDTH:1.0355
G1 X127.446 Y93.743 E.01707
;WIDTH:1.08067
G1 X127.315 Y93.692 E.01782
G1 X124.851 Y93.692 E.31233
;WIDTH:1.0947
G1 X124.617 Y93.706 E.03012
G1 X124.556 Y93.739 E.00891
M204 S1000
;WIPE_START
G1 F8640
G1 X124.395 Y93.824 E-.04204
G1 X124.284 Y93.883 E-.02903
G1 X124.088 Y94.056 E-.06036
G1 X123.893 Y94.228 E-.06004
G1 X123.675 Y94.603 E-.10016
G1 X123.597 Y95.036 E-.10159
G1 X123.597 Y96.365 E-.30678
;WIPE_END
G1 Z.55 F720
G1 X131.391 Y106.387 F10800
M73 P4 R6
G1 Z.3 F720
G1 E.7 F1200
M204 S800
;TYPE:External perimeter
;WIDTH:0.865107
G1 X131.391 Y109.051 E.26606
;WIDTH:0.871173
G1 X131.388 Y109.121 E.00705
M204 S1000
;WIPE_START
G1 F8640
G1 X131.391 Y109.051 E-.01618
G1 X131.391 Y106.387 E-.61513
;WIPE_END
G1 E-.06869 F2100
G1 Z.55 F720
G1 X124.504 Y116.86 F10800
G1 Z.3 F720
G1 E.7 F1200
M204 S800
;WIDTH:0.744381
G1 X124.328 Y117.49 E.05548
G1 X124.116 Y117.847 E.03521
G1 X123.894 Y118.102 E.02868
G1 X123.436 Y118.401 E.04639
G1 X122.807 Y118.565 E.05513
G1 X122.156 Y118.536 E.05527
M204 S1000
;WIPE_START
G1 F8640
G1 X122.807 Y118.565 E-.15047
G1 X123.436 Y118.401 E-.15009
G1 X123.894 Y118.102 E-.12629
G1 X124.116 Y117.847 E-.07807
G1 X124.328 Y117.49 E-.09587
G1 X124.444 Y117.076 E-.09921
;WIPE_END
G1 Z.55 F720
G1 X120.107 Y110.034 F10800
G1 Z.3 F720
G1 E.7 F1200
M204 S800
;TYPE:Perimeter
;WIDTH:0.899999
G1 X121.009 Y110.94 E.13324
G1 X121.409 Y111.309 E.05672
G1 X121.735 Y111.466 E.03771
G1 X122.113 Y111.524 E.03986
G1 X129.151 Y111.506 E.73352
G1 X130.164 Y111.376 E.10644
G1 X130.38 Y111.313 E.02345
G1 X130.341 Y112.051 E.07702
G1 X130.339 Y115.196 E.32778
G1 X126.829 Y115.204 E.36582
G1 X126.2 Y115.268 E.06589
G1 X125.691 Y115.393 E.05463
G1 X125.085 Y115.393 E.06316
G1 X124.635 Y114.662 E.08947
G1 X124.303 Y114.33 E.04893
G1 X123.845 Y114.045 E.05622
G1 X123.23 Y113.827 E.068
G1 X122.68 Y113.77 E.05763
G1 X122.163 Y113.811 E.05405
G1 X121.646 Y113.949 E.05577
G1 X121.162 Y114.178 E.05581
G1 X120.726 Y114.49 E.05588
G1 X120.35 Y114.879 E.05639
G1 X120.039 Y115.36 E.0597
G1 X119.259 Y112.666 E.29231
G1 X119.239 Y112.274 E.04091
G1 X119.367 Y111.907 E.04051
G1 X119.693 Y111.146 E.08628
G1 X120.065 Y110.147 E.1111
M204 S1000
;WIPE_START
G1 F8640
G1 X121.009 Y110.94 E-.28467
G1 X121.409 Y111.309 E-.12566
G1 X121.735 Y111.466 E-.08355
G1 X122.113 Y111.524 E-.0883
G1 X122.623 Y111.523 E-.11782
;WIPE_END
G1 Z.55 F720
G1 X124.851 Y94.618 F10800
G1 Z.3 F720
G1 E.7 F1200
M204 S800
;TYPE:External perimeter
G1 X124.779 Y94.624 E.00753
G1 X124.531 Y94.767 E.02984
G1 X124.459 Y94.892 E.01503
G1 X124.433 Y95.036 E.01525
G1 X124.433 Y104.751 E1.01253
M73 Q5 S6
G1 X122.112 Y104.754 E.2419
M73 P5 R6
G1 X121.806 Y104.888 E.03482
G1 X121.419 Y105.305 E.05929
G1 X120.834 Y106.155 E.10754
;WIDTH:0.894188
G1 X120.764 Y106.355 E.02193
;WIDTH:0.911413
G1 X120.602 Y108.173 E.19283
;WIDTH:0.936727
G1 X120.556 Y108.585 E.04511
G1 X120.554 Y109.117 E.05788
;WIDTH:0.911858
G1 X120.682 Y109.428 E.03555
;WIDTH:0.899999
G1 X121.877 Y110.616 E.17562
G1 X122.112 Y110.688 E.02562
G1 X129.044 Y110.677 E.72247
G1 X130.107 Y110.537 E.11175
G1 X130.334 Y110.387 E.02836
G1 X130.65 Y109.983 E.05346
G1 X131.28 Y109.34 E.09382
;WIDTH:0.880904
G1 X131.388 Y109.121 E.02487
G1 X131.383 Y109.383 E.02669
;WIDTH:0.899999
G1 X131.374 Y110.509 E.11736
G1 X131.263 Y111 E.05246
G1 X131.196 Y111.537 E.0564
G1 X131.177 Y112.052 E.05371
G1 X131.174 Y116.03 E.4146
G1 X126.83 Y116.039 E.45275
G1 X126.295 Y116.098 E.0561
G1 X125.804 Y116.229 E.05296
G1 X124.739 Y116.25 E.11102
G1 X124.629 Y116.348 E.01535
;WIDTH:0.854541
G1 X124.582 Y116.455 E.01152
;WIDTH:0.828645
G1 X124.534 Y116.563 E.01127
;WIDTH:0.802749
G1 X124.519 Y116.711 E.0137
;WIDTH:0.773565
G1 X124.504 Y116.86 E.01325
;WIDTH:0.783285
G1 X124.51 Y116.685 E.0157
;WIDTH:0.82219
G1 X124.516 Y116.511 E.01646
;WIDTH:0.861095
G1 X124.521 Y116.336 E.0174
;WIDTH:0.899999
G1 X124.527 Y116.161 E.01825
G1 X124.29 Y115.668 E.05701
G1 X124.088 Y115.414 E.03382
G1 X123.943 Y115.132 E.03305
G1 X123.578 Y114.847 E.04826
G1 X123.227 Y114.686 E.04025
G1 X122.782 Y114.609 E.04707
G1 X122.426 Y114.615 E.03711
G1 X122.046 Y114.694 E.04045
G1 X121.727 Y114.823 E.03586
G1 X121.363 Y115.046 E.04449
G1 X121.08 Y115.308 E.04019
G1 X120.848 Y115.619 E.04044
G1 X120.678 Y115.968 E.04046
;WIDTH:0.9252
G1 X120.572 Y116.359 E.0435
;WIDTH:0.973769
G1 X120.542 Y116.761 E.04572
G1 X120.704 Y117.253 E.05875
;WIDTH:0.955798
G1 X120.965 Y117.746 E.06202
G1 X121.304 Y118.151 E.05872
G1 X121.515 Y118.326 E.03048
;WIDTH:0.926135
G1 X121.688 Y118.39 E.01983
;WIDTH:0.876424
G1 X121.861 Y118.453 E.01865
;WIDTH:0.826713
G1 X122.034 Y118.517 E.01754
;WIDTH:0.821701
G1 X121.851 Y118.493 E.01743
;WIDTH:0.8664
G1 X121.667 Y118.469 E.01856
;WIDTH:0.911099
G1 X121.484 Y118.446 E.01948
;WIDTH:0.955798
G1 X120.735 Y118.358 E.08385
G1 X120.283 Y118.17 E.05443
G1 X120.03 Y117.867 E.04389
G1 X119.9 Y117.634 E.02966
;WIDTH:0.957313
G1 X119.71 Y117.128 E.0602
G1 X119.551 Y116.601 E.06131
;WIDTH:0.94511
G1 X119.384 Y116.106 E.05739
;WIDTH:0.899999
G1 X118.478 Y112.972 E.34001
G1 X118.376 Y112.39 E.06158
G1 X118.444 Y111.936 E.04785
G1 X118.913 Y110.848 E.12348
G1 X119.318 Y109.756 E.12139
;WIDTH:0.911858
G1 X119.566 Y108.998 E.0843
G1 X119.759 Y108.093 E.09781
;WIDTH:0.911413
G1 X119.942 Y106.277 E.19283
;WIDTH:0.894188
G1 X120.046 Y105.802 E.05033
;WIDTH:0.899999
G1 X120.228 Y104.91 E.09488
G1 X120.305 Y104.31 E.06305
G1 X120.311 Y103.289 E.10641
G1 X120.26 Y102.295 E.10373
G1 X120.159 Y101.331 E.10102
G1 X120.021 Y100.443 E.09366
G1 X119.824 Y99.492 E.10122
G1 X119.578 Y98.553 E.10117
G1 X119.283 Y97.628 E.10119
G1 X118.941 Y96.72 E.10112
G1 X118.551 Y95.831 E.10118
G1 X118.116 Y94.963 E.10119
G1 X117.637 Y94.119 E.10114
G1 X117.181 Y93.405 E.0883
G1 X116.987 Y92.995 E.04727
G1 X116.964 Y92.624 E.03874
G1 X117.069 Y92.289 E.03659
G1 X117.295 Y92.003 E.03799
M73 Q6 S6
G1 X117.598 Y91.821 E.03684
G1 X117.993 Y91.75 E.04183
G1 X131.546 Y91.75 E1.41253
G1 X132.821 Y97.703 E.63451
M73 P6 R6
G1 X131.885 Y98.639 E.13796
G1 X131.208 Y99.358 E.10293
G1 X131.174 Y99.524 E.01766
G1 X131.181 Y103.628 E.42773
G1 X131.216 Y104.128 E.05224
G1 X131.374 Y105.16 E.10881
G1 X131.391 Y106.387 E.12789
;WIDTH:0.87988
G1 X131.279 Y106.098 E.03153
;WIDTH:0.899999
G1 X130.65 Y105.455 E.09375
G1 X130.334 Y105.051 E.05346
G1 X130.187 Y104.93 E.01984
G1 X130.077 Y104.895 E.01203
G1 X129.516 Y104.796 E.05937
G1 X129.003 Y104.757 E.05362
G1 X127.733 Y104.752 E.13236
G1 X127.724 Y94.948 E1.0218
G1 X127.622 Y94.752 E.02303
G1 X127.49 Y94.656 E.01701
G1 X127.315 Y94.618 E.01866
G1 X124.971 Y94.618 E.2443
M204 S1000
G1 X124.811 Y94.557 F10800
;WIPE_START
G1 F8640
G1 X124.779 Y94.624 E-.04435
G1 X124.531 Y94.767 E-.0661
G1 X124.459 Y94.892 E-.03331
G1 X124.433 Y95.036 E-.03379
G1 X124.433 Y97.299 E-.52245
;WIPE_END
G1 Z.55 F720
G1 X124.102 Y93.752 F10800
G1 Z.3 F720
G1 E.7 F1200
M204 S800
;TYPE:Solid infill
;WIDTH:0.932407
G1 X123.552 Y93.201 E.08429
G1 X123.123 Y93.171 E.04656
G1 X122.293 Y93.171 E.08986
G1 X123.27 Y94.147 E.14951
G1 X123.125 Y94.397 E.03129
G1 X123.017 Y94.897 E.05538
G1 X123.017 Y95.121 E.02425
G1 X121.066 Y93.171 E.29864
G1 X119.838 Y93.171 E.13295
G1 X123.016 Y96.348 E.48651
G1 X123.016 Y97.575 E.13284
G1 X118.892 Y93.452 E.63135
G1 X119.354 Y94.265 E.10124
G1 X119.86 Y95.278 E.12259
G1 X120.145 Y95.932 E.07724
G1 X123.015 Y98.802 E.43943
G1 X123.014 Y100.029 E.13284
M73 Q7 S6
G1 X120.849 Y97.864 E.33148
G1 X121.219 Y99.222 E.15238
G1 X121.282 Y99.524 E.0334
M73 P7 R6
G1 X123.014 Y101.256 E.26519
G1 X123.013 Y102.483 E.13284
G1 X121.548 Y101.018 E.22431
G1 X121.687 Y102.385 E.14876
G1 X123.012 Y103.709 E.20279
M204 S1000
;WIPE_START
G1 F8640
G1 X121.687 Y102.385 E-.43251
G1 X121.57 Y101.232 E-.26749
;WIPE_END
G1 Z.55 F720
G1 X130.135 Y103.19 F10800
G1 Z.3 F720
G1 E.7 F1200
M204 S800
;WIDTH:0.982516
G1 X129.154 Y102.208 E.15895
G1 X129.154 Y100.91 E.14864
G1 X129.756 Y101.513 E.09757
G1 X129.754 Y100.212 E.14898
G1 X129.154 Y99.611 E.09725
G1 X129.154 Y98.313 E.14864
G1 X129.855 Y99.014 E.11353
G1 X129.9 Y98.795 E.0256
G1 X130.327 Y98.188 E.08499
G1 X129.154 Y97.014 E.19005
G1 X129.154 Y95.716 E.14864
G1 X130.976 Y97.539 E.29515
G1 X131.27 Y97.245 E.04761
G1 X131.076 Y96.34 E.10599
G1 X127.995 Y93.259 E.49896
G1 X128.002 Y93.202 E.00658
G1 X128.143 Y93.171 E.01653
G1 X129.205 Y93.171 E.12161
G1 X131.212 Y95.177 E.32495
M204 S1000
;WIPE_START
G1 F8640
G1 X129.205 Y93.171 E-.65521
G1 X129.011 Y93.171 E-.04479
;WIPE_END
G1 Z.55 F720
G1 X130.135 Y113.325 F10800
G1 Z.3 F720
G1 E.7 F1200
M204 S800
;WIDTH:0.925513
G1 X128.911 Y112.101 E.18592
G1 X127.693 Y112.102 E.13082
G1 X129.756 Y114.164 E.31328
G1 X129.755 Y114.612 E.04812
G1 X128.988 Y114.614 E.08238
G1 X126.476 Y112.102 E.38156
G1 X125.258 Y112.102 E.13082
G1 X127.773 Y114.617 E.38201
G1 X126.819 Y114.619 E.10246
G1 X126.582 Y114.644 E.0256
G1 X124.041 Y112.102 E.38604
M73 Q8 S6
G1 X122.823 Y112.102 E.13082
G1 X125.854 Y115.134 E.46047
M204 S1000
;WIPE_START
G1 F8640
M73 P8 R6
G1 X123.711 Y112.99 E-.7
;WIPE_END
G1 Z.55 F720
G1 X123.106 Y113.603 F10800
G1 Z.3 F720
G1 E.7 F1200
M204 S800
G1 X121.504 Y112.001 E.24333
G1 X121.245 Y111.892 E.03018
G1 X121.078 Y111.792 E.02091
G1 X120.815 Y111.574 E.03669
G1 X120.338 Y111.096 E.07253
G1 X120.06 Y111.776 E.0789
G1 X121.627 Y113.342 E.23794
G1 X121.123 Y113.536 E.058
G1 X120.79 Y113.723 E.04102
G1 X119.435 Y112.368 E.20582
M204 S1000
; stop printing object trigger.stl id:0 copy 0
M106 S84.15
;LAYER_CHANGE
;Z:0.85
;HEIGHT:0.55
;BEFORE_LAYER_CHANGE
G92 E0.0
;0.85


;WIPE_START
G1 F8640
G1 X120.79 Y113.723 E-.44247
G1 X121.123 Y113.536 E-.08818
G1 X121.627 Y113.342 E-.1247
G1 X121.49 Y113.205 E-.04465
;WIPE_END
G1 Z.55 F720
G1 Z.85
;AFTER_LAYER_CHANGE
;0.85
M104 S225 ; set temperature
G1 Z1.1
G1 X114.064 Y115.31 F10800
G1 Z.85 F720
G1 E.7 F1200
;TYPE:Skirt/Brim
;WIDTH:0.9
G1 F1675
G1 X113.576 Y113.587 E.3202
G1 X112.049 Y93.109 E3.67179
G1 X112.108 Y91.852 E.22501
G1 X112.48 Y90.519 E.24746
G1 X113.153 Y89.299 E.24914
G1 X113.739 Y88.606 E.16228
G1 X114.342 Y88.072 E.14402
G1 X115.638 Y87.312 E.26864
G1 X116.99 Y86.919 E.25175
G1 X117.948 Y86.839 E.17189
G1 X131.849 Y86.839 E2.48561
G1 X133.544 Y87.234 E.3112
G1 X134.647 Y88.052 E.24554
G1 X135.38 Y88.834 E.19165
G1 X136.333 Y90.653 E.36719
G1 X137.745 Y97.246 E1.20561
G1 X137.813 Y98.419 E.21009
G1 X136.067 Y116.473 E3.24326
G1 X135.51 Y118.122 E.31122
M73 P9 R6
M73 Q9 S6
G1 X134.386 Y119.391 E.30312
G1 X132.8 Y120.345 E.33094
G1 X124.355 Y122.933 E1.57935
G1 X123 Y123.149 E.24534
G1 X120.93 Y123.155 E.37013
G1 X119.87 Y123.032 E.19081
G1 X118.655 Y122.659 E.22726
G1 X117.639 Y122.122 E.20548
G1 X116.95 Y121.604 E.15413
G1 X116.151 Y120.778 E.20549
G1 X115.552 Y119.895 E.19079
G1 X114.978 Y118.536 E.26379
G1 X114.097 Y115.426 E.57797
; printing object trigger.stl id:0 copy 0
;WIPE_START
G1 F8640
G1 X113.576 Y113.587 E-.44134
G1 X113.493 Y112.47 E-.25866
;WIPE_END
G1 Z1.1 F720
G1 X124.49 Y94.013 F10800
G1 Z.85 F720
G1 E.7 F1200
M204 S800
;TYPE:Perimeter
;WIDTH:0.999999
G1 F1675
G1 X124.208 Y94.168 E.0649
G1 X123.944 Y94.445 E.07717
G1 X123.787 Y94.739 E.06722
G1 X123.701 Y95.209 E.09636
G1 X123.701 Y104.018 E1.77654
G1 X122.183 Y104.018 E.30614
G1 X121.792 Y104.077 E.07975
G1 X121.251 Y104.402 E.12728
G1 X120.575 Y105.078 E.1928
G1 X120.619 Y104.14 E.18938
G1 X120.613 Y103.153 E.19906
G1 X120.576 Y102.421 E.14781
G1 X120.48 Y101.429 E.201
G1 X120.332 Y100.444 E.20088
G1 X120.133 Y99.467 E.20108
