; generated by PrusaSlicer 2.6.0-alpha3+win64 on 2023-02-10 at 04:11:20 UTC


;
;
; 

; external perimeters extrusion width = 1.00mm
; perimeters extrusion width = 1.00mm
; infill extrusion width = 0.90mm
; solid infill extrusion width = 0.90mm
; top infill extrusion width = 0.80mm
; support material extrusion width = 0.70mm
; first layer extrusion width = 0.90mm

M73 P0 R50
M73 Q0 S50
M201 X1100 Y800 Z200 E5000 ; sets maximum accelerations, mm/sec^2
M203 X200 Y200 Z12 E120 ; sets maximum feedrates, mm / sec
M204 P1250 R1250 T1250 ; sets acceleration (P, T) and retract acceleration (R), mm/sec^2
M205 X8.00 Y8.00 Z0.40 E4.50 ; sets the jerk limits, mm/sec
M205 S0 T0 ; sets the minimum extruding and travel feed rate, mm/sec
M107
;TYPE:Custom
M862.3 P "MK3S" ; printer model check
M862.1 P0.8 ; nozzle diameter check
M115 U3.11.0 ; tell printer latest fw version
G90 ; use absolute coordinates
M83 ; extruder relative mode

M140 S60 ; set bed temp
M190 S60 ; wait for bed temp
M104 S220 ; set extruder temp
M109 S220 ; wait for extruder temp
G28 W ; home all without mesh bed level
G80 ; mesh bed leveling

G1 Z0.2 F720
G1 Y-3 F1000 ; go outside print area
G92 E0
G1 X60 E9 F1000 ; intro line
G1 X100 E12.5 F1000 ; intro line

G92 E0
M221 S95
G21 ; set units to millimeters
G90 ; use absolute coordinates
M83 ; use relative distances for extrusion
M900 K0.01 ; Filament gcode LA 1.5
; ; Filament gcode LA 1.0
M107
;LAYER_CHANGE
;Z:0.3
;HEIGHT:0.3
;BEFORE_LAYER_CHANGE
G92 E0.0
;0.3


G1 E-.7 F2100
G1 Z.25 F720
G1 Z.3
;AFTER_LAYER_CHANGE
;0.3
G1 Z.55
G1 X104.843 Y68.73 F10800
G1 Z.3 F720
G1 E.7 F1200
M204 S800
;TYPE:Skirt/Brim
;WIDTH:0.9
G1 X105.521 Y67.829 E.11752
G1 X106.743 Y66.586 E.18167
G1 X107.695 Y65.868 E.12428
G1 X108.684 Y65.246 E.12177
G1 X110.28 Y64.544 E.18172
G1 X111.968 Y64.107 E.18173
G1 X113.344 Y63.949 E.14435
G1 X135.463 Y62.767 E2.3086
G1 X136.341 Y62.785 E.09153
G1 X137.569 Y62.884 E.1284
G1 X138.681 Y63.111 E.11829
G1 X140.335 Y63.685 E.18247
G1 X141.876 Y64.518 E.18257
G1 X143.263 Y65.586 E.18245
G1 X144.461 Y66.863 E.18249
G1 X145.439 Y68.316 E.18254
G1 X146.366 Y70.492 E.24651
G1 X146.737 Y72.204 E.18257
G1 X146.839 Y73.554 E.1411
G1 X147.832 Y115.891 E4.41371
G1 X146.604 Y138.017 E2.30959
G1 X146.299 Y139.568 E.16475
G1 X145.99 Y140.506 E.10293
G1 X145.402 Y141.774 E.14567
G1 X144.737 Y142.808 E.12813
G1 X143.365 Y144.064 E.19386
G1 X141.823 Y144.896 E.18261
G1 X139.86 Y145.674 E.22007
G1 X138.23 Y146.173 E.17767
G1 X129.968 Y148.276 E.88855
G1 X128.309 Y148.538 E.17505
G1 X126.45 Y148.491 E.19381
G1 X125.079 Y148.224 E.14557
G1 X113.266 Y144.571 E1.28871
G1 X111.771 Y143.7 E.18033
G1 X110.033 Y142.041 E.25042
G1 X109.169 Y140.963 E.14399
G1 X108.465 Y139.742 E.14689
G1 X107.612 Y137.768 E.22412
G1 X107.39 Y137.082 E.07515
G1 X102.608 Y115.626 E2.29108
G1 X102.386 Y114.05 E.16588
G1 X102.314 Y100.771 E1.384
G1 X103.062 Y73.6 E2.83292
G1 X103.39 Y71.888 E.18168
M73 P0 R49
M73 Q0 S49
G1 X103.989 Y70.25 E.18177
G1 X104.785 Y68.835 E.16921
M204 S1000
; printing object trigger guard.stl id:0 copy 0
;WIPE_START
G1 F8640
G1 X105.521 Y67.829 E-.28782
G1 X106.743 Y66.586 E-.40248
G1 X106.777 Y66.561 E-.0097
;WIPE_END
G1 Z.55 F720
G1 X114.131 Y67.802 F10800
G1 Z.3 F720
G1 E.7 F1200
M204 S800
;TYPE:Support material
G1 X114.676 Y67.824 E.05685
G1 X115.78 Y68.05 E.11745
G1 X116.834 Y68.45 E.1175
G1 X117.811 Y69.014 E.11757
G1 X118.684 Y69.727 E.11748
G1 X119.431 Y70.571 E.11747
G1 X120.034 Y71.524 E.11754
G1 X120.274 Y72.087 E.06379
G1 X120.476 Y72.561 E.0537
G1 X120.745 Y73.656 E.11752
G1 X120.836 Y74.779 E.11743
G1 X120.745 Y75.903 E.11753
G1 X120.475 Y76.998 E.11754
G1 X120.228 Y77.577 E.06561
G1 X120.033 Y78.035 E.05188
G1 X119.431 Y78.987 E.11739
G1 X118.683 Y79.831 E.11754
G1 X117.81 Y80.544 E.11748
G1 X116.834 Y81.108 E.11748
G1 X115.78 Y81.508 E.1175
G1 X114.675 Y81.733 E.11753
G1 X113.549 Y81.778 E.11745
G1 X112.429 Y81.643 E.11757
G1 X111.943 Y81.502 E.05274
G1 X111.347 Y81.329 E.06468
G1 X110.328 Y80.846 E.11753
G1 X109.4 Y80.205 E.11755
G1 X108.587 Y79.424 E.1175
G1 X107.91 Y78.523 E.11746
G1 X107.664 Y78.055 E.0551
G1 X107.386 Y77.525 E.06238
G1 X107.029 Y76.455 E.11756
G1 X106.848 Y75.342 E.11752
G1 X106.848 Y74.215 E.11746
G1 X107.029 Y73.102 E.11752
G1 X107.386 Y72.033 E.11746
G1 X107.91 Y71.034 E.11757
G1 X108.587 Y70.133 E.11746
G1 X109.4 Y69.352 E.1175
G1 X110.328 Y68.712 E.11749
G1 X111.347 Y68.228 E.11757
G1 X112.43 Y67.915 E.11749
G1 X113.549 Y67.779 E.11748
G1 X114.006 Y67.797 E.04767
M204 S1000
G1 X119.429 Y78.287 F10800
M204 S800
G1 F1200
G1 X119.429 Y72.023 E.65285
G1 X119.366 Y71.874 E.01686
G1 X118.828 Y71.024 E.10484
G1 X118.501 Y70.654 E.05146
G1 X118.501 Y78.903 E.85974
G1 X118.161 Y79.287 E.05345
G1 X117.572 Y79.767 E.07919
G1 X117.572 Y69.79 E1.03983
G1 X117.382 Y69.635 E.02556
G1 X116.644 Y69.208 E.08886
G1 X116.644 Y80.349 E1.16115
G1 X116.51 Y80.426 E.01611
G1 X115.715 Y80.728 E.08863
G1 X115.715 Y68.83 E1.24005
G1 X115.57 Y68.775 E.01616
G1 X114.787 Y68.615 E.08329
G1 X114.787 Y80.943 E1.28486
G1 X114.584 Y80.984 E.02158
G1 X113.858 Y81.013 E.07573
G1 X113.858 Y68.544 E1.29956
G1 X113.579 Y68.533 E.0291
G1 X112.93 Y68.612 E.06814
G1 X112.93 Y80.946 E1.28549
G1 X112.58 Y80.903 E.03675
G1 X112.001 Y80.736 E.06281
G1 X112.001 Y68.822 E1.24171
G1 X111.614 Y68.934 E.04199
G1 X111.073 Y69.191 E.06242
G1 X111.073 Y80.367 E1.1648
G1 X110.705 Y80.192 E.04247
G1 X110.145 Y79.805 E.07095
G1 X110.145 Y69.752 E1.04775
G1 X109.877 Y69.936 E.03388
G1 X109.216 Y70.572 E.0956
G1 X109.216 Y78.986 E.87693
G1 X109.152 Y78.924 E.00929
G1 X108.547 Y78.12 E.10487
G1 X108.288 Y77.625 E.05823
G1 X108.288 Y71.157 E.67411
M204 S1000
;WIPE_START
G1 F8640
G1 X108.288 Y74.189 E-.7
;WIPE_END
G1 Z.55 F720
G1 X112.496 Y95.198 F10800
G1 Z.3 F720
G1 E.7 F1200
M204 S800
G1 X113.586 Y95.383 E.11523
G1 X114.622 Y95.767 E.11515
G1 X115.569 Y96.337 E.1152
G1 X116.393 Y97.074 E.11522
G1 X116.618 Y97.361 E.03801
G1 X116.618 Y104.833 E.77875
G1 X116.39 Y105.123 E.03845
M73 P1 R49
M73 Q1 S49
G1 X115.566 Y105.859 E.11515
G1 X115.052 Y106.178 E.06305
G1 X114.618 Y106.429 E.05225
G1 X114.051 Y106.649 E.06339
G1 X113.582 Y106.812 E.05175
G1 X113.099 Y106.903 E.05123
G1 X113.099 Y107.65 E.07785
G1 X113.644 Y107.752 E.05779
G1 X114.68 Y108.137 E.11519
G1 X115.627 Y108.707 E.1152
G1 X116.451 Y109.444 E.11522
G1 X116.618 Y109.657 E.02821
G1 X116.618 Y117.274 E.79387
G1 X116.446 Y117.493 E.02902
G1 X115.621 Y118.229 E.11523
G1 X114.674 Y118.798 E.11515
G1 X113.638 Y119.181 E.11512
G1 X112.549 Y119.365 E.11511
G1 X111.935 Y119.366 E.06399
G1 X111.445 Y119.343 E.05113
G1 X110.836 Y119.23 E.06456
G1 X110.365 Y119.117 E.05048
G1 X109.781 Y118.891 E.06526
G1 X109.345 Y118.694 E.04986
G1 X108.808 Y118.361 E.06586
G1 X108.422 Y118.088 E.04928
G1 X107.951 Y117.659 E.0664
G1 X107.628 Y117.322 E.04865
G1 X107.24 Y116.81 E.06695
G1 X106.99 Y116.421 E.04819
G1 X106.701 Y115.842 E.06744
G1 X106.53 Y115.417 E.04775
G1 X106.352 Y114.792 E.06773
G1 X106.265 Y114.346 E.04736
G1 X106.205 Y113.695 E.06814
G1 X106.205 Y113.243 E.04711
G1 X106.265 Y112.59 E.06834
G1 X106.35 Y112.148 E.04691
G1 X106.53 Y111.516 E.06849
G1 X106.697 Y111.098 E.04691
G1 X106.99 Y110.511 E.06838
G1 X107.234 Y110.132 E.04698
G1 X107.629 Y109.609 E.06831
G1 X107.942 Y109.282 E.04718
G1 X108.424 Y108.842 E.06802
G1 X108.796 Y108.578 E.04754
G1 X109.349 Y108.237 E.06771
G1 X109.767 Y108.046 E.0479
G1 X110.369 Y107.814 E.06724
G1 X111.079 Y107.643 E.07611
G1 X111.079 Y106.933 E.074
G1 X110.308 Y106.748 E.08264
G1 X109.721 Y106.521 E.06559
G1 X109.288 Y106.325 E.04954
G1 X108.749 Y105.991 E.06609
G1 X108.365 Y105.719 E.04904
G1 X107.893 Y105.289 E.06655
G1 X107.571 Y104.952 E.04858
G1 X107.183 Y104.439 E.06704
G1 X106.933 Y104.051 E.04811
G1 X106.644 Y103.472 E.06744
G1 X106.473 Y103.047 E.04775
G1 X106.295 Y102.422 E.06773
G1 X106.208 Y101.975 E.04746
G1 X106.148 Y101.326 E.06793
G1 X106.148 Y100.871 E.04742
G1 X106.208 Y100.222 E.06793
G1 X106.294 Y99.776 E.04734
G1 X106.473 Y99.148 E.06806
G1 X106.642 Y98.727 E.04728
G1 X106.932 Y98.143 E.06796
G1 X107.179 Y97.76 E.0475
G1 X107.571 Y97.241 E.06779
G1 X107.887 Y96.91 E.04769
G1 X108.366 Y96.474 E.06751
G1 X108.742 Y96.207 E.04806
G1 X109.29 Y95.868 E.06716
G1 X109.713 Y95.676 E.04842
G1 X110.311 Y95.445 E.06681
G1 X110.767 Y95.336 E.04886
G1 X111.392 Y95.219 E.06627
G1 X112.371 Y95.198 E.10206
M204 S1000
;WIPE_START
G1 F8640
G1 X111.392 Y95.219 E-.22611
G1 X110.767 Y95.336 E-.14682
G1 X110.311 Y95.445 E-.10826
G1 X109.713 Y95.676 E-.14802
G1 X109.434 Y95.803 E-.07079
;WIPE_END
G1 Z.55 F720
G1 X115.715 Y117.649 F10800
G1 Z.3 F720
G1 E.7 F1200
M204 S800
G1 X115.715 Y109.79 E.81909
G1 X115.179 Y109.314 E.07471
G1 X114.787 Y109.071 E.04807
G1 X114.787 Y117.861 E.91612
G1 X114.348 Y118.118 E.05302
G1 X113.858 Y118.308 E.05477
G1 X113.858 Y108.624 E1.0093
G1 X113.45 Y108.481 E.04506
G1 X112.93 Y108.383 E.05515
G1 X112.93 Y118.549 E1.05953
G1 X112.494 Y118.613 E.04593
G1 X112.001 Y118.614 E.05138
G1 X112.001 Y95.95 E2.36211
G1 X112.442 Y95.95 E.04596
G1 X112.93 Y96.025 E.05146
G1 X112.93 Y106.169 E1.05724
G1 X113.388 Y106.083 E.04857
G1 X113.858 Y105.917 E.05195
G1 X113.858 Y96.277 E1.00471
G1 X114.295 Y96.447 E.04887
G1 X114.787 Y96.737 E.05952
G1 X114.787 Y105.457 E.90883
G1 X115.118 Y105.252 E.04058
G1 X115.715 Y104.721 E.08327
G1 X115.715 Y96.964 E.80846
M204 S1000
G1 X111.073 Y118.892 F10800
M204 S800
G1 F1200
G1 X111.073 Y108.418 E1.09163
G1 X110.594 Y108.533 E.05134
G1 X110.145 Y108.707 E.05019
G1 X110.145 Y118.226 E.9921
G1 X109.7 Y118.029 E.05072
G1 X109.216 Y117.729 E.05935
G1 X109.216 Y109.203 E.88861
G1 X108.897 Y109.429 E.04075
G1 X108.288 Y110.008 E.08758
G1 X108.288 Y116.923 E.7207
G1 X107.857 Y116.378 E.07242
G1 X107.644 Y116.048 E.04094
G1 X107.359 Y115.463 E.06782
G1 X107.359 Y110.632 E.5035
M204 S1000
;WIPE_START
G1 F8640
G1 X107.359 Y113.664 E-.7
;WIPE_END
G1 Z.55 F720
G1 X111.073 Y106.545 F10800
G1 Z.3 F720
G1 E.7 F1200
M204 S800
G1 X111.073 Y96.043 E1.09455
G1 X110.535 Y96.165 E.0575
G1 X110.145 Y96.316 E.04359
G1 X110.145 Y105.879 E.99669
G1 X109.643 Y105.66 E.05708
G1 X109.216 Y105.396 E.05232
G1 X109.216 Y96.799 E.89601
G1 X108.839 Y97.061 E.04785
G1 X108.288 Y97.58 E.07889
G1 X108.288 Y104.614 E.73311
G1 X108.144 Y104.464 E.02167
G1 X107.799 Y104.008 E.0596
G1 X107.587 Y103.679 E.04079
G1 X107.359 Y103.221 E.05332
G1 X107.359 Y98.175 E.52591
M204 S1000
;WIPE_START
G1 F8640
G1 X107.359 Y101.207 E-.7
;WIPE_END
G1 Z.55 F720
G1 X138.287 Y98.365 F10800
G1 Z.3 F720
G1 E.7 F1200
M204 S800
G1 X138.923 Y98.48 E.06736
G1 X139.361 Y98.608 E.04756
G1 X139.974 Y98.841 E.06835
G1 X140.37 Y99.048 E.04657
G1 X140.937 Y99.396 E.06934
G1 X141.279 Y99.672 E.0458
G1 X141.778 Y100.123 E.0701
G1 X142.055 Y100.456 E.04514
G1 X142.466 Y100.996 E.07073
G1 X142.976 Y101.984 E.11588
G1 X143.289 Y103.051 E.11589
G1 X143.394 Y104.15 E.11506
G1 X143.288 Y105.25 E.11518
G1 X142.974 Y106.317 E.11592
G1 X142.669 Y106.925 E.07089
G1 X142.463 Y107.305 E.04505
G1 X141.775 Y108.177 E.11576
G1 X141.279 Y108.625 E.06966
G1 X140.934 Y108.904 E.04624
G1 X140.371 Y109.248 E.06876
G1 X139.97 Y109.457 E.04713
G1 X138.683 Y109.948 E.14357
G1 X140.055 Y110.422 E.15129
G1 X140.639 Y110.648 E.06526
G1 X141.587 Y111.218 E.11529
G1 X142.413 Y111.954 E.11531
G1 X143.088 Y112.832 E.11542
G1 X143.587 Y113.819 E.11527
G1 X143.894 Y114.883 E.11542
G1 X143.997 Y115.981 E.11494
G1 X143.894 Y117.08 E.11504
G1 X143.587 Y118.143 E.11532
G1 X143.088 Y119.131 E.11536
G1 X142.414 Y120.009 E.11536
G1 X141.588 Y120.745 E.11531
G1 X140.639 Y121.315 E.11538
G1 X139.601 Y121.698 E.11531
G1 X138.51 Y121.881 E.1153
G1 X137.884 Y121.881 E.06524
G1 X137.404 Y121.858 E.05008
G1 X136.79 Y121.743 E.06511
G1 X136.322 Y121.629 E.0502
G1 X135.74 Y121.404 E.06503
G1 X135.302 Y121.203 E.05023
G1 X134.772 Y120.875 E.06496
G1 X134.379 Y120.595 E.05029
G1 X133.919 Y120.176 E.06485
G1 X133.585 Y119.825 E.0505
G1 X133.318 Y119.472 E.04613
G1 X133.318 Y112.492 E.72748
G1 X133.585 Y112.138 E.04621
G1 X133.92 Y111.787 E.05057
G1 X134.378 Y111.369 E.06463
G1 X134.773 Y111.087 E.05058
G1 X135.301 Y110.76 E.06473
G1 X136.087 Y110.425 E.08905
G1 X136.067 Y109.787 E.06653
G1 X135.636 Y109.651 E.0471
G1 X135.07 Y109.429 E.06337
G1 X134.63 Y109.188 E.05229
G1 X134.123 Y108.87 E.06237
G1 X133.732 Y108.544 E.05306
G1 X133.318 Y108.163 E.05864
G1 X133.318 Y100.134 E.83681
G1 X134.119 Y99.429 E.11121
G1 X134.631 Y99.109 E.06293
G1 X135.066 Y98.87 E.05173
G1 X135.638 Y98.645 E.06406
G1 X136.101 Y98.499 E.0506
G1 X136.715 Y98.38 E.06518
G1 X137.187 Y98.328 E.04949
G1 X137.823 Y98.325 E.06629
G1 X138.162 Y98.354 E.03546
M204 S1000
;WIPE_START
G1 F8640
G1 X137.823 Y98.325 E-.07856
G1 X137.187 Y98.328 E-.14686
G1 X136.715 Y98.38 E-.10965
G1 X136.101 Y98.499 E-.14441
G1 X135.638 Y98.645 E-.1121
G1 X135.201 Y98.817 E-.10842
;WIPE_END
G1 Z.55 F720
G1 X142.641 Y119.099 F10800
G1 Z.3 F720
G1 E.7 F1200
M204 S800
G1 X142.641 Y113.606 E.5725
G1 X142.449 Y113.234 E.04363
G1 X141.861 Y112.468 E.10064
G1 X141.712 Y112.333 E.02096
G1 X141.712 Y119.63 E.76052
G1 X141.141 Y120.137 E.07959
G1 X140.784 Y120.358 E.04376
G1 X140.784 Y111.605 E.91226
G1 X140.313 Y111.329 E.0569
G1 X139.855 Y111.151 E.05121
G1 X139.855 Y120.812 E1.0069
G1 X139.408 Y120.969 E.04938
G1 X138.927 Y121.059 E.051
G1 X138.927 Y110.828 E1.06631
G1 X137.999 Y110.507 E.10234
G1 X137.999 Y121.129 E1.10706
G1 X137.492 Y121.109 E.05288
G1 X137.07 Y121.03 E.04475
G1 X137.07 Y99.098 E2.28582
G1 X137.231 Y99.08 E.01688
G1 X137.793 Y99.077 E.05857
G1 X137.999 Y99.095 E.02155
G1 X137.999 Y109.404 E1.07444
G1 X138.927 Y109.05 E.10352
G1 X138.927 Y99.265 E1.01982
G1 X139.664 Y99.528 E.08156
G1 X139.855 Y99.628 E.02247
G1 X139.855 Y108.669 E.94228
G1 X140.5 Y108.288 E.07808
G1 X140.784 Y108.059 E.03802
G1 X140.784 Y100.238 E.81513
G1 X141.234 Y100.645 E.06324
G1 X141.712 Y101.248 E.0802
G1 X141.712 Y107.665 E.6688
M204 S1000
;WIPE_START
G1 F8640
G1 X141.712 Y104.633 E-.7
;WIPE_END
G1 Z.55 F720
G1 X136.142 Y121.156 F10800
G1 Z.3 F720
G1 E.7 F1200
M204 S800
G1 X136.142 Y111.211 E1.0365
G1 X135.657 Y111.424 E.05521
G1 X135.213 Y111.699 E.05443
G1 X135.213 Y120.264 E.89267
G1 X134.852 Y120.009 E.04606
G1 X134.285 Y119.469 E.08161
G1 X134.285 Y111.963 E.7823
M204 S1000
G1 X136.142 Y109.417 F10800
M204 S800
G1 F1200
G1 X136.142 Y99.274 E1.05713
G1 X135.386 Y99.552 E.08395
G1 X135.213 Y99.647 E.02057
G1 X135.213 Y108.65 E.93832
G1 X134.566 Y108.26 E.07874
G1 X134.285 Y108.025 E.03818
G1 X134.285 Y99.781 E.85921
M204 S1000
;WIPE_START
G1 F8640
G1 X134.285 Y102.813 E-.7
;WIPE_END
G1 Z.55 F720
G1 X136.187 Y66.618 F10800
G1 Z.3 F720
G1 E.7 F1200
M204 S800
G1 X136.802 Y66.642 E.06415
G1 X137.914 Y66.869 E.11829
G1 X138.975 Y67.272 E.11829
G1 X139.958 Y67.839 E.11827
M73 Q2 S49
G1 X140.837 Y68.557 E.11829
G1 X141.59 Y69.407 E.11835
G1 X141.875 Y69.857 E.05552
M73 P2 R49
G1 X142.197 Y70.366 E.06277
G1 X142.642 Y71.41 E.11828
G1 X142.913 Y72.513 E.11838
G1 X143.005 Y73.644 E.11827
G1 X142.913 Y74.775 E.11827
G1 X142.784 Y75.3 E.05634
G1 X142.642 Y75.877 E.06193
G1 X142.197 Y76.922 E.11838
G1 X141.59 Y77.881 E.11829
G1 X140.837 Y78.731 E.11835
G1 X139.958 Y79.449 E.11829
G1 X138.975 Y80.016 E.11827
G1 X138.419 Y80.227 E.06198
G1 X137.914 Y80.419 E.05631
G1 X136.802 Y80.646 E.11829
G1 X135.667 Y80.691 E.11839
G1 X134.541 Y80.554 E.11822
G1 X133.45 Y80.239 E.11835
G1 X132.906 Y79.98 E.0628
G1 X132.425 Y79.752 E.05548
G1 X131.491 Y79.107 E.1183
G1 X130.672 Y78.321 E.11831
G1 X129.99 Y77.413 E.11836
G1 X129.463 Y76.408 E.11827
G1 X129.269 Y75.826 E.06394
G1 X129.104 Y75.332 E.05428
G1 X128.921 Y74.211 E.11838
G1 X128.922 Y73.076 E.11829
G1 X129.104 Y71.956 E.11826
G1 X129.463 Y70.879 E.11832
G1 X129.751 Y70.33 E.06461
G1 X129.991 Y69.874 E.05371
G1 X130.672 Y68.967 E.11821
G1 X131.491 Y68.181 E.11831
G1 X132.425 Y67.536 E.1183
G1 X133.451 Y67.049 E.11837
G1 X134.541 Y66.734 E.11825
G1 X135.668 Y66.597 E.11832
G1 X136.062 Y66.613 E.0411
M204 S1000
G1 X141.712 Y76.984 F10800
M204 S800
G1 F1200
G1 X141.712 Y71.148 E.60825
G1 X141.529 Y70.717 E.0488
