; generated by PrusaSlicer 2.6.0-alpha3+win64 on 2023-02-10 at 20:17:33 UTC


;
;
; 

; external perimeters extrusion width = 0.90mm
; perimeters extrusion width = 0.90mm
; infill extrusion width = 0.90mm
; solid infill extrusion width = 0.90mm
; top infill extrusion width = 0.80mm
; first layer extrusion width = 0.90mm

M73 P0 R26
M73 Q0 S26
M201 X1100 Y800 Z200 E5000 ; sets maximum accelerations, mm/sec^2
M203 X200 Y200 Z12 E120 ; sets maximum feedrates, mm / sec
M204 P1250 R1250 T1250 ; sets acceleration (P, T) and retract acceleration (R), mm/sec^2
M205 X8.00 Y8.00 Z0.40 E4.50 ; sets the jerk limits, mm/sec
M205 S0 T0 ; sets the minimum extruding and travel feed rate, mm/sec
M107
;TYPE:Custom
M862.3 P "MK3S" ; printer model check
M862.1 P0.8 ; nozzle diameter check
M115 U3.11.0 ; tell printer latest fw version
G90 ; use absolute coordinates
M83 ; extruder relative mode

M140 S60 ; set bed temp
M190 S60 ; wait for bed temp
M104 S220 ; set extruder temp
M109 S220 ; wait for extruder temp
G28 W ; home all without mesh bed level
G80 ; mesh bed leveling

G1 Z0.2 F720
G1 Y-3 F1000 ; go outside print area
G92 E0
G1 X60 E9 F1000 ; intro line
G1 X100 E12.5 F1000 ; intro line

G92 E0
M221 S95
G21 ; set units to millimeters
G90 ; use absolute coordinates
M83 ; use relative distances for extrusion
M900 K0.01 ; Filament gcode LA 1.5
; ; Filament gcode LA 1.0
M107
;LAYER_CHANGE
;Z:0.3
;HEIGHT:0.3
;BEFORE_LAYER_CHANGE
G92 E0.0
;0.3


G1 E-.7 F2100
G1 Z.25 F720
G1 Z.3
;AFTER_LAYER_CHANGE
;0.3
G1 Z.55
G1 X95.319 Y72.497 F10800
G1 Z.3 F720
G1 E.7 F1200
M204 S800
;TYPE:Skirt/Brim
;WIDTH:0.9
G1 X97.202 Y70.518 E.28471
G1 X99.309 Y68.78 E.28467
G1 X101.611 Y67.308 E.28478
G1 X104.073 Y66.125 E.28468
G1 X106.66 Y65.247 E.28473
G1 X109.334 Y64.687 E.28474
G1 X110.691 Y64.529 E.14239
G1 X112.69 Y64.454 E.20849
G1 X114.786 Y64.55 E.21868
G1 X117.258 Y64.927 E.26062
G1 X119.893 Y65.647 E.2847
G1 X121.387 Y66.213 E.16651
G1 X123.837 Y67.422 E.28474
G1 X125.937 Y68.78 E.26064
G1 X128.045 Y70.518 E.28475
G1 X129.175 Y71.648 E.16655
G1 X130.913 Y73.755 E.28467
G1 X156.311 Y110.551 E4.65984
G1 X157.138 Y111.918 E.16652
M73 P0 R25
G1 X158.233 Y114.166 E.26061
G1 X158.799 Y115.661 E.16661
G1 X159.519 Y118.296 E.2847
G1 X159.896 Y120.768 E.26062
G1 X159.992 Y122.363 E.16654
G1 X159.917 Y124.863 E.26067
G1 X159.724 Y126.449 E.16652
G1 X159.137 Y129.117 E.28472
G1 X158.321 Y131.481 E.26065
G1 X157.665 Y132.938 E.16653
G1 X156.437 Y135.116 E.26059
G1 X154.829 Y137.325 E.28477
G1 X153.77 Y138.521 E.16649
G1 X151.949 Y140.235 E.26064
G1 X150.691 Y141.22 E.16652
G1 X148.591 Y142.578 E.26064
G1 X146.141 Y143.787 E.28474
G1 X143.34 Y144.753 E.3088
G1 X142.011 Y145.073 E.14247
G1 X140.036 Y145.389 E.20846
G1 X138.176 Y145.539 E.19448
G1 X136.809 Y145.546 E.14247
G1 X133.858 Y145.278 E.30883
G1 X131.414 Y144.753 E.26053
G1 X130.107 Y144.353 E.14246
G1 X127.578 Y143.321 E.28468
G1 X125.191 Y141.991 E.28479
G1 X122.805 Y140.235 E.30876
G1 X120.825 Y138.352 E.28478
G1 X119.087 Y136.245 E.28467
G1 X93.689 Y99.449 E4.65984
G1 X92.862 Y98.082 E.16652
M73 P1 R25
M73 Q1 S26
G1 X91.767 Y95.834 E.26061
G1 X90.863 Y93.256 E.28473
G1 X90.276 Y90.588 E.28472
G1 X90.015 Y87.868 E.28479
G1 X90.083 Y85.137 E.28472
G1 X90.481 Y82.435 E.28465
G1 X91.201 Y79.799 E.2848
G1 X92.233 Y77.27 E.28468
G1 X93.689 Y74.689 E.30885
G1 X95.247 Y72.594 E.27211
M204 S1000
; printing object Wheel-For-Ben v1.stl id:0 copy 0
;WIPE_START
G1 F8640
G1 X97.202 Y70.518 E-.65845
G1 X97.341 Y70.403 E-.04155
;WIPE_END
G1 Z.55 F720
G1 X96.074 Y91.605 F10800
G1 Z.3 F720
M73 Q1 S25
G1 E.7 F1200
M204 S800
;TYPE:Perimeter
;WIDTH:0.899999
G1 X95.844 Y90.671 E.10025
G1 X95.657 Y89.652 E.10798
G1 X95.532 Y88.622 E.10814
G1 X95.469 Y87.588 E.10797
G1 X95.469 Y86.551 E.10808
G1 X95.532 Y85.516 E.10807
G1 X95.657 Y84.487 E.10803
G1 X95.844 Y83.467 E.10808
G1 X96.092 Y82.461 E.10799
G1 X96.4 Y81.471 E.10806
G1 X96.768 Y80.502 E.10803
G1 X97.193 Y79.556 E.10809
G1 X97.675 Y78.639 E.10797
G1 X98.211 Y77.751 E.1081
G1 X98.8 Y76.898 E.10804
G1 X99.44 Y76.082 E.10808
G1 X100.127 Y75.306 E.10802
G1 X100.86 Y74.573 E.10804
G1 X101.636 Y73.886 E.10802
G1 X102.452 Y73.246 E.10808
G1 X103.305 Y72.657 E.10804
G1 X104.192 Y72.121 E.10801
G1 X105.11 Y71.639 E.10806
G1 X106.056 Y71.214 E.10809
G1 X107.025 Y70.846 E.10803
G1 X108.015 Y70.538 E.10806
G1 X109.021 Y70.29 E.10799
G1 X110.041 Y70.103 E.10808
G1 X111.07 Y69.978 E.10803
G1 X112.105 Y69.915 E.10807
G1 X113.142 Y69.915 E.10808
G1 X114.176 Y69.978 E.10797
G1 X115.206 Y70.103 E.10814
G1 X116.225 Y70.29 E.10798
G1 X117.232 Y70.538 E.10809
G1 X118.221 Y70.846 E.10796
G1 X119.191 Y71.214 E.10813
G1 X120.136 Y71.639 E.10799
G1 X121.054 Y72.121 E.10806
G1 X121.941 Y72.657 E.10801
G1 X122.794 Y73.246 E.10804
G1 X123.61 Y73.886 E.10808
G1 X124.386 Y74.573 E.10802
G1 X125.119 Y75.306 E.10804
G1 X125.807 Y76.082 E.10809
G1 X126.446 Y76.898 E.10802
G1 X127.035 Y77.751 E.10804
G1 X127.571 Y78.639 E.1081
G1 X128.053 Y79.556 E.10797
G1 X128.479 Y80.502 E.10813
G1 X128.846 Y81.471 E.10799
G1 X129.155 Y82.461 E.10809
G1 X129.403 Y83.467 E.10799
G1 X129.59 Y84.487 E.10808
G1 X129.715 Y85.516 E.10803
G1 X129.777 Y86.767 E.13054
G1 X129.777 Y87.588 E.08557
G1 X129.715 Y88.622 E.10796
G1 X129.59 Y89.652 E.10814
G1 X129.403 Y90.671 E.10798
G1 X129.155 Y91.678 E.10809
G1 X128.846 Y92.668 E.10809
G1 X128.479 Y93.637 E.10799
G1 X128.053 Y94.582 E.10804
G1 X127.571 Y95.5 E.10806
G1 X127.035 Y96.387 E.10801
G1 X126.446 Y97.241 E.10812
G1 X125.807 Y98.057 E.10802
G1 X125.119 Y98.833 E.10809
G1 X124.386 Y99.566 E.10804
G1 X123.61 Y100.253 E.10802
G1 X122.794 Y100.892 E.10802
G1 X121.941 Y101.481 E.10804
G1 X121.054 Y102.018 E.10807
G1 X120.136 Y102.499 E.10801
G1 X119.191 Y102.925 E.10804
G1 X118.221 Y103.292 E.10809
G1 X117.232 Y103.601 E.10799
G1 X116.225 Y103.849 E.10809
G1 X115.206 Y104.036 E.10798
G1 X114.176 Y104.161 E.10814
G1 X113.142 Y104.223 E.10796
G1 X112.105 Y104.223 E.10808
G1 X111.07 Y104.161 E.10806
G1 X110.041 Y104.036 E.10803
G1 X109.021 Y103.849 E.10808
G1 X108.015 Y103.601 E.10799
G1 X107.025 Y103.292 E.10809
G1 X106.056 Y102.925 E.10799
G1 X105.11 Y102.499 E.10813
G1 X104.192 Y102.018 E.10801
G1 X103.305 Y101.481 E.10807
G1 X102.452 Y100.892 E.10804
G1 X101.636 Y100.253 E.10802
G1 X100.86 Y99.566 E.10802
G1 X100.127 Y98.833 E.10804
G1 X99.44 Y98.057 E.10802
G1 X98.8 Y97.241 E.10808
G1 X98.211 Y96.387 E.10812
G1 X97.675 Y95.5 E.10801
G1 X97.193 Y94.582 E.10806
G1 X96.768 Y93.637 E.10799
G1 X96.4 Y92.668 E.10803
G1 X96.105 Y91.721 E.10338
M204 S1000
G1 X95.263 Y91.805 F10800
M204 S800
;TYPE:External perimeter
G1 F1200
G1 X95.026 Y90.847 E.10286
G1 X94.83 Y89.777 E.11337
G1 X94.699 Y88.698 E.11328
G1 X94.634 Y87.613 E.11328
G1 X94.634 Y86.526 E.11329
G1 X94.699 Y85.441 E.11328
G1 X94.83 Y84.361 E.11339
G1 X95.026 Y83.292 E.11327
G1 X95.286 Y82.236 E.11335
G1 X95.61 Y81.198 E.11333
G1 X95.995 Y80.182 E.11324
G1 X96.442 Y79.19 E.1134
G1 X96.947 Y78.228 E.11324
G1 X97.509 Y77.297 E.11334
G1 X98.127 Y76.403 E.11327
G1 X98.797 Y75.547 E.11329
G1 X99.518 Y74.733 E.11333
G1 X100.287 Y73.964 E.11335
G1 X101.101 Y73.243 E.11333
G1 X101.957 Y72.573 E.11329
G1 X102.851 Y71.955 E.11327
G1 X103.782 Y71.393 E.11334
G1 X104.744 Y70.888 E.11324
G1 X105.736 Y70.442 E.11336
G1 X106.752 Y70.056 E.11328
G1 X107.79 Y69.733 E.1133
G1 X108.846 Y69.472 E.11337
G1 X109.915 Y69.276 E.11327
G1 X110.995 Y69.145 E.11339
G1 X112.08 Y69.08 E.11328
G1 X113.167 Y69.08 E.11329
G1 X114.252 Y69.145 E.11328
G1 X115.331 Y69.276 E.11328
G1 X116.401 Y69.472 E.11337
G1 X117.456 Y69.733 E.11327
G1 X118.494 Y70.056 E.1133
G1 X119.511 Y70.442 E.11337
G1 X120.502 Y70.888 E.11326
G1 X121.465 Y71.393 E.11333
G1 X122.395 Y71.955 E.11325
G1 X123.29 Y72.573 E.11336
G1 X124.146 Y73.243 E.11329
G1 X124.959 Y73.964 E.11325
G1 X125.728 Y74.733 E.11335
G1 X126.449 Y75.547 E.11333
G1 X127.12 Y76.403 E.11336
G1 X127.737 Y77.297 E.11321
G1 X128.3 Y78.228 E.11339
G1 X128.805 Y79.19 E.11324
G1 X129.251 Y80.182 E.11336
G1 X129.637 Y81.198 E.11328
G1 X129.96 Y82.236 E.1133
G1 X130.22 Y83.292 E.11335
G1 X130.416 Y84.361 E.11327
G1 X130.547 Y85.441 E.11339
G1 X130.613 Y86.767 E.13837
G1 X130.613 Y87.613 E.08817
G1 X130.547 Y88.698 E.11329
G1 X130.416 Y89.777 E.11328
G1 X130.22 Y90.847 E.11337
G1 X129.96 Y91.902 E.11325
G1 X129.637 Y92.94 E.1133
G1 X129.251 Y93.957 E.11337
G1 X128.805 Y94.948 E.11326
G1 X128.3 Y95.911 E.11333
G1 X127.737 Y96.841 E.1133
G1 X127.12 Y97.736 E.1133
G1 X126.449 Y98.592 E.11336
G1 X125.728 Y99.406 E.11333
G1 X124.959 Y100.174 E.11327
G1 X124.146 Y100.895 E.11325
G1 X123.29 Y101.566 E.11336
G1 X122.395 Y102.183 E.1133
G1 X121.465 Y102.746 E.1133
G1 X120.502 Y103.251 E.11333
G1 X119.511 Y103.697 E.11326
G1 X118.494 Y104.083 E.11337
G1 X117.456 Y104.406 E.1133
G1 X116.401 Y104.666 E.11325
G1 X115.331 Y104.862 E.11337
G1 X114.252 Y104.993 E.11328
G1 X113.167 Y105.059 E.11329
G1 X112.08 Y105.059 E.11329
G1 X110.994 Y104.993 E.1134
G1 X109.915 Y104.862 E.11328
G1 X108.846 Y104.666 E.11327
G1 X107.79 Y104.406 E.11335
G1 X106.752 Y104.083 E.1133
G1 X105.736 Y103.697 E.11328
G1 X104.744 Y103.251 E.11336
G1 X103.782 Y102.746 E.11324
G1 X102.851 Y102.183 E.11339
G1 X101.957 Y101.566 E.11321
G1 X101.101 Y100.895 E.11336
G1 X100.287 Y100.174 E.11333
G1 X99.518 Y99.406 E.11327
G1 X98.797 Y98.592 E.11333
G1 X98.127 Y97.736 E.11329
G1 X97.509 Y96.841 E.11336
G1 X96.947 Y95.911 E.11325
G1 X96.442 Y94.948 E.11333
G1 X95.995 Y93.957 E.11331
G1 X95.61 Y92.94 E.11334
G1 X95.292 Y91.921 E.11125
M204 S1000
G1 X95.823 Y91.235 F10800
;WIPE_START
G1 F8640
G1 X95.026 Y90.847 E-.25548
G1 X94.83 Y89.777 E-.25118
G1 X94.729 Y88.946 E-.19334
;WIPE_END
G1 Z.55 F720
G1 X110.6 Y87.74 F10800
G1 Z.3 F720
G1 E.7 F1200
M204 S800
;TYPE:Perimeter
G1 X110.512 Y87.342 E.04248
G1 X110.454 Y86.797 E.05712
G1 X110.531 Y86.382 E.04399
G1 X110.726 Y86.034 E.04158
G1 X111.107 Y85.565 E.06298
G1 X111.239 Y85.449 E.01831
G1 X111.107 Y85.081 E.04075
G1 X110.977 Y84.515 E.06053
G1 X110.952 Y84.104 E.04291
G1 X111.099 Y83.555 E.05923
G1 X111.245 Y83.247 E.03552
G1 X111.574 Y82.789 E.05877
G1 X112.019 Y82.432 E.05946
G1 X112.543 Y82.187 E.06029
G1 X113.031 Y82.082 E.05202
G1 X113.444 Y82.066 E.04308
G1 X113.959 Y82.135 E.05415
G1 X114.447 Y82.326 E.05462
G1 X114.855 Y82.591 E.05071
G1 X115.218 Y82.933 E.05198
G1 X115.506 Y83.346 E.05248
G1 X115.708 Y83.85 E.05659
G1 X115.769 Y84.193 E.03631
G1 X115.78 Y84.611 E.04358
G1 X115.672 Y85.157 E.05801
G1 X115.504 Y85.547 E.04426
M73 Q2 S25
G1 X114.949 Y86.152 E.08557
G1 X114.646 Y86.399 E.04074
M73 P2 R25
G1 X114.735 Y86.798 E.04261
G1 X114.794 Y87.341 E.05693
G1 X114.717 Y87.758 E.0442
G1 X114.519 Y88.108 E.04191
G1 X114.139 Y88.574 E.06267
G1 X114.008 Y88.69 E.01824
G1 X114.139 Y89.058 E.04071
G1 X114.269 Y89.623 E.06042
G1 X114.295 Y90.035 E.04303
G1 X114.148 Y90.583 E.05913
G1 X114.002 Y90.891 E.03552
G1 X113.673 Y91.35 E.05886
G1 X113.217 Y91.714 E.06081
G1 X112.74 Y91.937 E.05488
G1 X112.447 Y92.018 E.03168
G1 X111.857 Y92.084 E.06188
G1 X111.287 Y92.003 E.06
G1 X110.799 Y91.813 E.05458
G1 X110.391 Y91.548 E.05071
G1 X110.029 Y91.206 E.0519
G1 X109.712 Y90.737 E.059
G1 X109.51 Y90.19 E.06077
G1 X109.466 Y89.627 E.05886
G1 X109.501 Y89.288 E.03552
G1 X109.659 Y88.743 E.05914
G1 X109.893 Y88.403 E.04302
G1 X110.297 Y87.987 E.06044
G1 X110.507 Y87.815 E.02829
M204 S1000
;WIPE_START
G1 F8640
G1 X110.512 Y87.342 E-.10922
G1 X110.454 Y86.797 E-.12655
G1 X110.531 Y86.382 E-.09746
G1 X110.726 Y86.034 E-.09211
G1 X111.107 Y85.565 E-.13952
G1 X111.239 Y85.449 E-.04058
G1 X111.107 Y85.081 E-.09027
G1 X111.103 Y85.063 E-.00429
;WIPE_END
G1 Z.55 F720
G1 X112.068 Y88.174 F10800
G1 Z.3 F720
G1 E.7 F1200
M204 S800
;TYPE:External perimeter
;WIDTH:0.839495
G1 X111.893 Y88.101 E.01833
;WIDTH:0.869747
G1 X111.748 Y87.982 E.01884
;WIDTH:0.899999
G1 X111.602 Y87.862 E.0197
G1 X111.467 Y87.659 E.02541
G1 X111.354 Y87.343 E.03498
G1 X111.29 Y86.839 E.05295
G1 X111.347 Y86.603 E.0253
G1 X111.679 Y86.179 E.05613
G1 X112.034 Y85.913 E.04623
G1 X112.355 Y85.816 E.03495
;WIDTH:0.868264
G1 X112.513 Y85.815 E.01584
;WIDTH:0.84256
G1 X112.672 Y85.815 E.01543
;WIDTH:0.816857
G1 X112.907 Y85.864 E.02253
;WIDTH:0.807852
G1 X112.743 Y85.802 E.01626
;WIDTH:0.83509
G1 X112.579 Y85.74 E.01685
;WIDTH:0.867545
G1 X112.418 Y85.628 E.01965
;WIDTH:0.899999
G1 X112.257 Y85.515 E.0205
G1 X112.02 Y85.152 E.04518
G1 X111.838 Y84.532 E.06734
G1 X111.787 Y84.162 E.03893
G1 X111.944 Y83.705 E.05036
G1 X112.212 Y83.336 E.04753
G1 X112.564 Y83.083 E.04518
G1 X112.97 Y82.932 E.04515
G1 X113.35 Y82.897 E.03977
G1 X113.823 Y82.968 E.04985
G1 X114.214 Y83.15 E.04495
G1 X114.545 Y83.429 E.04512
G1 X114.791 Y83.787 E.04527
G1 X114.934 Y84.223 E.04782
G1 X114.945 Y84.575 E.0367
G1 X114.819 Y85.065 E.05273
G1 X114.349 Y85.571 E.07198
G1 X113.991 Y85.828 E.04593
G1 X113.649 Y85.944 E.03764
;WIDTH:0.886334
G1 X113.438 Y85.942 E.02163
;WIDTH:0.850613
G1 X113.226 Y85.94 E.02079
;WIDTH:0.814892
G1 X113 Y85.89 E.02167
;WIDTH:0.809093
G1 X113.174 Y85.962 E.01749
;WIDTH:0.839124
G1 X113.348 Y86.033 E.01816
;WIDTH:0.866739
G1 X113.467 Y86.118 E.01463
;WIDTH:0.894355
G1 X113.585 Y86.202 E.01499
;WIDTH:0.899999
G1 X113.779 Y86.48 E.03533
G1 X113.892 Y86.795 E.03488
G1 X113.958 Y87.3 E.05308
G1 X113.901 Y87.537 E.02541
G1 X113.567 Y87.961 E.05625
G1 X113.213 Y88.226 E.04609
G1 X112.892 Y88.324 E.03498
;WIDTH:0.869781
G1 X112.727 Y88.324 E.01657
;WIDTH:0.842337
G1 X112.562 Y88.323 E.01601
;WIDTH:0.814893
G1 X112.336 Y88.274 E.02165
;WIDTH:0.808702
G1 X112.509 Y88.339 E.01716
;WIDTH:0.838342
G1 X112.682 Y88.404 E.01784
;WIDTH:0.869171
G1 X112.836 Y88.514 E.019
;WIDTH:0.899999
G1 X112.99 Y88.624 E.01972
G1 X113.226 Y88.986 E.04504
G1 X113.407 Y89.602 E.06692
G1 X113.46 Y89.976 E.03937
G1 X113.302 Y90.434 E.05049
G1 X113.034 Y90.802 E.04745
G1 X112.683 Y91.056 E.04516
G1 X112.323 Y91.191 E.04007
G1 X111.848 Y91.245 E.04982
G1 X111.423 Y91.171 E.04496
G1 X111.033 Y90.989 E.04486
G1 X110.701 Y90.709 E.04526
G1 X110.456 Y90.352 E.04513
G1 X110.313 Y89.916 E.04782
G1 X110.313 Y89.484 E.04502
G1 X110.45 Y89.037 E.04873
G1 X110.897 Y88.568 E.06753
G1 X111.255 Y88.311 E.04593
G1 X111.612 Y88.192 E.03922
;WIDTH:0.881662
G1 X111.816 Y88.197 E.0208
;WIDTH:0.848276
G1 X112.02 Y88.201 E.01995
;WIDTH:0.814891
G1 X112.242 Y88.248 E.02124
;WIDTH:0.810055
G1 X112.178 Y88.221 E.00646
M204 S1000
;WIPE_START
G1 F8640
G1 X111.893 Y88.101 E-.0714
G1 X111.748 Y87.982 E-.04331
G1 X111.602 Y87.862 E-.04364
G1 X111.467 Y87.659 E-.05629
G1 X111.354 Y87.343 E-.07749
G1 X111.29 Y86.839 E-.11731
G1 X111.347 Y86.603 E-.05606
G1 X111.679 Y86.179 E-.12434
G1 X112.034 Y85.913 E-.10243
G1 X112.066 Y85.903 E-.00773
;WIPE_END
G1 Z.55 F720
G1 X126.888 Y77.912 F10800
G1 Z.3 F720
G1 E.7 F1200
M204 S800
;TYPE:Solid infill
;WIDTH:0.913725
G1 X123.9 Y74.923 E.44772
G1 X123.236 Y74.335 E.09396
G1 X122.448 Y73.718 E.10602
G1 X121.624 Y73.149 E.10608
G1 X120.767 Y72.631 E.10608
G1 X120.008 Y72.233 E.09079
G1 X127.46 Y79.685 E1.11642
G1 X127.938 Y80.726 E.12135
G1 X128.319 Y81.745 E.11525
G1 X117.948 Y71.374 E1.55373
G1 X117.075 Y71.102 E.09687
G1 X116.278 Y70.905 E.08697
G1 X128.787 Y83.414 E1.87403
G1 X129.011 Y84.575 E.12526
G1 X129.048 Y84.876 E.03213
G1 X114.817 Y70.645 E2.13201
G1 X114.124 Y70.561 E.07395
G1 X113.499 Y70.528 E.0663
G1 X129.17 Y86.199 E2.34774
G1 X129.192 Y86.569 E.03927
G1 X129.192 Y87.423 E.09047
G1 X112.27 Y70.5 E2.53524
G1 X111.129 Y70.56 E.12104
G1 X129.132 Y88.564 E2.69719
G1 X128.999 Y89.632 E.11401
G1 X110.061 Y70.694 E2.83719
G1 X109.051 Y70.885 E.10889
G1 X128.808 Y90.642 E2.95989
G1 X128.566 Y91.601 E.10478
G1 X108.091 Y71.127 E3.06738
G1 X107.178 Y71.414 E.10138
G1 X128.279 Y92.515 E3.16124
G1 X127.941 Y93.379 E.09828
M73 P3 R25
M73 Q3 S25
G1 X106.307 Y71.744 E3.24116
G1 X105.477 Y72.116 E.09635
G1 X127.576 Y94.215 E3.31075
G1 X127.169 Y95.009 E.09452
G1 X116.354 Y84.194 E1.62024
G1 X116.334 Y83.959 E.02498
G1 X116.268 Y83.679 E.03047
G1 X116.114 Y83.272 E.0461
G1 X115.989 Y83.01 E.03075
G1 X115.56 Y82.43 E.07642
G1 X115.349 Y82.235 E.03044
G1 X114.986 Y81.956 E.0485
