; generated by PrusaSlicer 2.6.0-alpha3+win64 on 2023-02-09 at 04:14:26 UTC


;
;
; 

; external perimeters extrusion width = 0.90mm
; perimeters extrusion width = 0.90mm
; infill extrusion width = 0.90mm
; solid infill extrusion width = 0.90mm
; top infill extrusion width = 0.80mm
; first layer extrusion width = 0.90mm

M73 P0 R12
M73 Q0 S12
M201 X1100 Y800 Z200 E5000 ; sets maximum accelerations, mm/sec^2
M203 X200 Y200 Z12 E120 ; sets maximum feedrates, mm / sec
M204 P1250 R1250 T1250 ; sets acceleration (P, T) and retract acceleration (R), mm/sec^2
M205 X8.00 Y8.00 Z0.40 E4.50 ; sets the jerk limits, mm/sec
M205 S0 T0 ; sets the minimum extruding and travel feed rate, mm/sec
M107
;TYPE:Custom
M862.3 P "MK3S" ; printer model check
M862.1 P0.8 ; nozzle diameter check
M115 U3.11.0 ; tell printer latest fw version
G90 ; use absolute coordinates
M83 ; extruder relative mode

M140 S60 ; set bed temp
M190 S60 ; wait for bed temp
M104 S220 ; set extruder temp
M109 S220 ; wait for extruder temp
G28 W ; home all without mesh bed level
G80 ; mesh bed leveling

G1 Z0.2 F720
G1 Y-3 F1000 ; go outside print area
G92 E0
G1 X60 E9 F1000 ; intro line
G1 X100 E12.5 F1000 ; intro line

G92 E0
M221 S95
G21 ; set units to millimeters
G90 ; use absolute coordinates
M83 ; use relative distances for extrusion
M900 K0.01 ; Filament gcode LA 1.5
; ; Filament gcode LA 1.0
M107
;LAYER_CHANGE
;Z:0.3
;HEIGHT:0.3
;BEFORE_LAYER_CHANGE
G92 E0.0
;0.3


G1 E-.7 F2100
G1 Z.25 F720
G1 Z.3
;AFTER_LAYER_CHANGE
;0.3
G1 Z.55
G1 X113.207 Y79.75 F10800
G1 Z.3 F720
G1 E.7 F1200
M204 S800
;TYPE:Skirt/Brim
;WIDTH:0.9
G1 X114.688 Y78.149 E.22731
G1 X115.799 Y77.201 E.15222
M73 Q1 S12
G1 X116.827 Y76.46 E.13207
G1 X118.694 Y75.408 E.22335
G1 X121.071 Y74.502 E.26512
M73 P1 R12
G1 X123.345 Y74.02 E.24227
G1 X125.774 Y73.877 E.2536
G1 X126.944 Y73.943 E.12213
G1 X128.675 Y74.204 E.18245
G1 X130.312 Y74.642 E.17661
G1 X131.682 Y75.152 E.15236
G1 X133.262 Y75.939 E.18397
G1 X134.644 Y76.828 E.17126
G1 X135.792 Y77.734 E.15242
G1 X136.933 Y78.831 E.16497
G1 X137.808 Y79.846 E.13967
G1 X138.751 Y81.171 E.1695
G1 X139.62 Y82.727 E.18575
G1 X140.097 Y83.811 E.12343
G1 X140.647 Y85.46 E.18117
G1 X140.921 Y86.637 E.12595
G1 X141.156 Y88.369 E.18217
G1 X141.195 Y90.087 E.1791
G1 X140.233 Y121.368 E3.26174
G1 X139.91 Y123.712 E.24661
G1 X139.214 Y126.043 E.25354
G1 X138.196 Y128.186 E.24727
G1 X136.793 Y130.25 E.26011
G1 X135.312 Y131.851 E.22731
G1 X134.201 Y132.799 E.15222
G1 X133.173 Y133.54 E.13207
G1 X132.172 Y134.145 E.1219
G1 X130.863 Y134.793 E.15223
G1 X128.684 Y135.567 E.241
G1 X127.616 Y135.819 E.11437
G1 X126.172 Y136.04 E.15225
G1 X124.043 Y136.118 E.22204
G1 X122.285 Y135.965 E.18392
G1 X121.103 Y135.748 E.12525
G1 X119.439 Y135.279 E.18018
G1 X118.318 Y134.848 E.12517
G1 X116.738 Y134.061 E.18397
G1 X115.356 Y133.172 E.17126
G1 X114.208 Y132.266 E.15242
G1 X113.067 Y131.169 E.16497
G1 X112.192 Y130.154 E.13967
G1 X111.249 Y128.829 E.1695
G1 X110.38 Y127.273 E.18575
G1 X109.903 Y126.189 E.12343
G1 X109.353 Y124.54 E.18117
G1 X109.079 Y123.363 E.12595
G1 X108.844 Y121.631 E.18217
G1 X108.805 Y119.913 E.1791
G1 X109.767 Y88.632 E3.26174
G1 X110.09 Y86.289 E.2465
M73 Q2 S12
G1 X110.786 Y83.957 E.25364
G1 X111.804 Y81.814 E.24727
M73 P2 R12
G1 X113.139 Y79.849 E.24759
M204 S1000
; printing object Wheel.stl id:0 copy 0
;WIPE_START
G1 F8640
G1 X114.688 Y78.149 E-.53105
G1 X115.245 Y77.674 E-.16895
;WIPE_END
G1 Z.55 F720
G1 X116.476 Y114.792 F10800
G1 Z.3 F720
G1 E.7 F1200
M204 S800
;TYPE:Perimeter
;WIDTH:0.899999
G1 X116.712 Y114.46 E.04245
G1 X117.102 Y113.979 E.06454
G1 X117.595 Y113.456 E.07491
G1 X117.985 Y113.079 E.05653
G1 X118.466 Y112.676 E.0654
G1 X118.971 Y112.304 E.06537
G1 X119.494 Y111.969 E.06473
G1 X120.113 Y111.633 E.07341
G1 X120.611 Y111.395 E.05753
G1 X121.192 Y111.164 E.06516
G1 X121.929 Y110.93 E.08059
G1 X122.462 Y110.801 E.05715
G1 X123.007 Y110.698 E.05781
G1 X123.781 Y110.607 E.08122
G1 X124.316 Y110.583 E.05582
G1 X124.882 Y110.586 E.05899
G1 X125.66 Y110.643 E.0813
G1 X126.274 Y110.734 E.06469
G1 X126.88 Y110.864 E.0646
G1 X127.563 Y111.064 E.07417
G1 X128.082 Y111.243 E.05722
G1 X128.654 Y111.486 E.06477
G1 X129.283 Y111.811 E.07379
G1 X129.758 Y112.087 E.05726
G1 X130.276 Y112.436 E.0651
G1 X130.829 Y112.871 E.07333
G1 X131.243 Y113.234 E.05739
G1 X131.686 Y113.678 E.06537
G1 X132.193 Y114.262 E.0806
G1 X132.567 Y114.76 E.06491
G1 X132.91 Y115.285 E.06536
G1 X133.182 Y115.765 E.0575
G1 X133.43 Y116.261 E.0578
G1 X133.732 Y116.981 E.08137
G1 X133.903 Y117.49 E.05596
G1 X134.052 Y118.032 E.05858
G1 X134.212 Y118.792 E.08095
G1 X134.306 Y119.559 E.08054
G1 X134.338 Y120.125 E.05908
G1 X134.34 Y120.659 E.05566
G1 X134.292 Y121.352 E.0724
G1 X134.225 Y121.91 E.05857
G1 X134.108 Y122.524 E.06514
G1 X133.91 Y123.272 E.08064
G1 X133.709 Y123.862 E.06496
G1 X133.469 Y124.441 E.06532
G1 X133.225 Y124.938 E.0577
G1 X132.955 Y125.42 E.05758
G1 X132.53 Y126.075 E.08138
G1 X132.201 Y126.509 E.05676
G1 X131.842 Y126.932 E.05782
G1 X131.305 Y127.491 E.08079
G1 X130.772 Y127.958 E.07386
G1 X130.346 Y128.296 E.05668
G1 X129.833 Y128.648 E.06484
G1 X129.223 Y129.005 E.07366
G1 X128.734 Y129.258 E.05738
G1 X128.157 Y129.51 E.06562
G1 X127.568 Y129.722 E.06524
G1 X126.969 Y129.896 E.06501
G1 X126.213 Y130.059 E.0806
G1 X125.676 Y130.135 E.05653
G1 X125.118 Y130.186 E.0584
G1 X124.339 Y130.203 E.08121
G1 X123.805 Y130.176 E.05573
G1 X123.242 Y130.118 E.05899
G1 X122.479 Y129.988 E.08067
G1 X121.796 Y129.811 E.07354
G1 X121.272 Y129.648 E.05719
G1 X120.693 Y129.424 E.0647
G1 X120.053 Y129.119 E.07389
G1 X119.569 Y128.859 E.05726
G1 X119.037 Y128.524 E.06552
G1 X118.529 Y128.156 E.06538
G1 X118.049 Y127.76 E.06485
G1 X117.489 Y127.226 E.08065
G1 X117.115 Y126.815 E.05792
G1 X116.767 Y126.393 E.05701
G1 X116.315 Y125.759 E.08115
G1 X116.029 Y125.29 E.05725
G1 X115.767 Y124.804 E.05754
G1 X115.442 Y124.094 E.08138
G1 X115.255 Y123.589 E.05613
G1 X115.088 Y123.053 E.05851
G1 X114.903 Y122.294 E.08142
G1 X114.802 Y121.682 E.06465
G1 X114.74 Y121.064 E.06473
G1 X114.721 Y120.37 E.07236
G1 X114.734 Y119.807 E.05869
G1 X114.791 Y119.185 E.0651
G1 X114.904 Y118.501 E.07225
G1 X115.025 Y117.953 E.05849
G1 X115.2 Y117.351 E.06534
G1 X115.469 Y116.625 E.08069
G1 X115.695 Y116.125 E.05719
G1 X115.949 Y115.634 E.05762
G1 X116.407 Y114.89 E.09106
M204 S1000
G1 X115.795 Y114.308 F10800
M204 S800
;TYPE:External perimeter
G1 F1200
G1 X116.046 Y113.955 E.04514
G1 X116.472 Y113.428 E.07063
G1 X117.046 Y112.82 E.08715
G1 X117.428 Y112.456 E.05499
G1 X117.949 Y112.019 E.07087
G1 X118.497 Y111.615 E.07096
G1 X119.068 Y111.249 E.07069
G1 X119.802 Y110.851 E.08702
G1 X120.279 Y110.627 E.05492
G1 X120.911 Y110.376 E.07087
G1 X121.705 Y110.124 E.08682
G1 X122.366 Y109.965 E.07086
G1 X122.884 Y109.871 E.05487
G1 X123.713 Y109.774 E.08699
G1 X124.392 Y109.743 E.07084
G1 X124.919 Y109.751 E.05493
G1 X125.751 Y109.812 E.08695
G1 X126.423 Y109.911 E.07079
G1 X127.086 Y110.053 E.07067
G1 X127.888 Y110.288 E.0871
G1 X128.385 Y110.464 E.05495
G1 X129.009 Y110.73 E.0707
G1 X129.752 Y111.112 E.08707
G1 X130.205 Y111.38 E.05486
G1 X130.768 Y111.761 E.07085
G1 X131.424 Y112.276 E.08692
G1 X131.818 Y112.627 E.055
G1 X132.298 Y113.108 E.07082
G1 X132.844 Y113.737 E.08681
G1 X133.251 Y114.28 E.07073
G1 X133.624 Y114.849 E.07091
G1 X133.909 Y115.353 E.06035
G1 X134.149 Y115.83 E.05565
G1 X134.557 Y116.813 E.11093
G1 X134.758 Y117.436 E.06823
G1 X134.884 Y117.929 E.05303
G1 X135.056 Y118.806 E.09314
G1 X135.145 Y119.584 E.08161
G1 X135.173 Y120.122 E.05615
G1 X135.175 Y120.686 E.05878
G1 X135.118 Y121.519 E.08702
G1 X135.051 Y122.041 E.05485
G1 X134.924 Y122.709 E.07087
G1 X134.711 Y123.514 E.08679
G1 X134.491 Y124.157 E.07083
G1 X134.231 Y124.785 E.07084
G1 X133.93 Y125.397 E.07108
G1 X133.669 Y125.855 E.05494
G1 X133.215 Y126.555 E.08696
G1 X132.804 Y127.096 E.07081
G1 X132.46 Y127.495 E.05491
G1 X131.882 Y128.096 E.08691
G1 X131.255 Y128.645 E.08686
G1 X130.841 Y128.97 E.05486
G1 X130.281 Y129.354 E.07077
G1 X129.561 Y129.776 E.08698
G1 X129.091 Y130.015 E.05495
G1 X128.466 Y130.287 E.07104
G1 X127.826 Y130.517 E.07088
G1 X127.174 Y130.707 E.07078
G1 X126.36 Y130.882 E.08678
G1 X125.687 Y130.978 E.07085
G1 X125.162 Y131.021 E.0549
G1 X124.327 Y131.039 E.08705
G1 X123.649 Y131.004 E.07076
G1 X123.125 Y130.945 E.05496
G1 X122.304 Y130.806 E.08678
G1 X121.497 Y130.596 E.08691
G1 X120.994 Y130.437 E.05498
G1 X120.362 Y130.191 E.07068
G1 X119.608 Y129.833 E.08699
G1 X119.146 Y129.579 E.05495
G1 X118.569 Y129.216 E.07105
G1 X118.018 Y128.817 E.0709
G1 X117.495 Y128.385 E.0707
G1 X116.892 Y127.811 E.08677
G1 X116.433 Y127.308 E.07097
G1 X116.102 Y126.899 E.05484
G1 X115.617 Y126.219 E.08705
G1 X115.263 Y125.639 E.07082
G1 X115.017 Y125.174 E.05483
G1 X114.67 Y124.414 E.08708
G1 X114.433 Y123.778 E.07074
G1 X114.281 Y123.273 E.05497
G1 X114.083 Y122.461 E.08711
G1 X113.973 Y121.792 E.07066
G1 X113.905 Y121.117 E.07071
G1 X113.883 Y120.282 E.08706
G1 X113.9 Y119.756 E.05485
G1 X113.962 Y119.079 E.07085
G1 X114.098 Y118.256 E.08694
M73 Q3 S12
G1 X114.216 Y117.742 E.05496
G1 X114.406 Y117.089 E.07088
G1 X114.695 Y116.308 E.08679
G1 X114.975 Y115.689 E.07081
G1 X115.221 Y115.223 E.05492
G1 X115.725 Y114.406 E.10005
M204 S1000
G1 X116.227 Y114.337 F10800
;WIPE_START
M73 P3 R12
G1 F8640
G1 X116.046 Y113.955 E-.12782
G1 X116.472 Y113.428 E-.15647
G1 X117.046 Y112.82 E-.19307
G1 X117.428 Y112.456 E-.12184
G1 X117.762 Y112.175 E-.1008
;WIPE_END
G1 Z.55 F720
G1 X123.482 Y121.111 F10800
G1 Z.3 F720
G1 E.7 F1200
M204 S800
;WIDTH:0.744381
M73 P3 R11
G1 X123.796 Y121.433 E.03815
M204 S1000
;WIPE_START
G1 F8640
G1 X123.482 Y121.111 E-.10385
;WIPE_END
G1 E-.59615 F2100
G1 Z.55 F720
G1 X127.87 Y120.434 F10800
G1 Z.3 F720
G1 E.7 F1200
M204 S800
;TYPE:Perimeter
;WIDTH:0.899999
G1 X128.239 Y120.784 E.05301
G1 X128.539 Y121.252 E.05794
G1 X128.706 Y121.745 E.05425
G1 X128.749 Y122.34 E.06217
G1 X128.632 Y122.955 E.06525
G1 X128.407 Y123.451 E.05676
G1 X128.096 Y123.868 E.05422
G1 X127.704 Y124.211 E.05429
G1 X127.254 Y124.463 E.05375
G1 X126.736 Y124.62 E.05641
G1 X126.199 Y124.657 E.0561
G1 X125.73 Y124.593 E.04933
G1 X125.189 Y124.374 E.06083
G1 X124.689 Y123.983 E.06615
G1 X124.484 Y123.735 E.03353
G1 X124.104 Y124.129 E.05705
G1 X123.818 Y124.322 E.03596
G1 X123.494 Y124.477 E.03743
G1 X122.87 Y124.613 E.06656
G1 X122.284 Y124.579 E.06118
G1 X121.793 Y124.437 E.05327
G1 X121.254 Y124.129 E.0647
G1 X120.869 Y123.774 E.05458
G1 X120.569 Y123.349 E.05422
G1 X120.362 Y122.861 E.05525
G1 X120.266 Y122.341 E.05511
G1 X120.281 Y121.826 E.0537
G1 X120.417 Y121.32 E.05461
M73 Q3 S11
G1 X120.73 Y120.776 E.06541
G1 X121.181 Y120.35 E.06466
G1 X120.815 Y120 E.05278
G1 X120.515 Y119.533 E.05785
G1 X120.343 Y119.015 E.05689
G1 X120.308 Y118.41 E.06316
G1 X120.397 Y117.901 E.05385
G1 X120.647 Y117.333 E.06468
G1 X120.958 Y116.916 E.05422
G1 X121.35 Y116.573 E.05429
G1 X121.734 Y116.347 E.04644
G1 X122.225 Y116.208 E.05318
G1 X122.704 Y116.122 E.05072
G1 X123.303 Y116.186 E.06278
G1 X123.823 Y116.386 E.05807
G1 X124.229 Y116.671 E.0517
G1 X124.57 Y117.049 E.05306
G1 X124.95 Y116.655 E.05705
G1 X125.28 Y116.441 E.04099
G1 X125.86 Y116.236 E.06411
G1 X126.252 Y116.169 E.04145
G1 X126.852 Y116.224 E.0628
G1 X127.334 Y116.381 E.05283
G1 X127.776 Y116.636 E.05318
G1 X128.185 Y117.01 E.05776
G1 X128.485 Y117.435 E.05422
G1 X128.69 Y117.915 E.0544
G1 X128.787 Y118.424 E.054
G1 X128.76 Y119.017 E.06187
G1 X128.617 Y119.507 E.0532
G1 X128.324 Y120.008 E.06049
G1 X127.962 Y120.358 E.05248
M204 S1000
;WIPE_START
G1 F8640
G1 X128.239 Y120.784 E-.11733
G1 X128.539 Y121.252 E-.12836
G1 X128.706 Y121.745 E-.12019
G1 X128.749 Y122.34 E-.13775
G1 X128.632 Y122.955 E-.14455
G1 X128.539 Y123.159 E-.05182
;WIPE_END
G1 Z.55 F720
G1 X125.739 Y119.839 F10800
G1 Z.3 F720
G1 E.7 F1200
M204 S800
;TYPE:External perimeter
;WIDTH:0.808318
G1 X125.876 Y120.108 E.02801
;WIDTH:0.811887
G1 X125.931 Y120.444 E.03174
G1 X125.831 Y120.867 E.04052
G1 X126.278 Y120.779 E.04248
;WIDTH:0.841346
G1 X126.581 Y120.8 E.02943
;WIDTH:0.870673
G1 X126.897 Y120.901 E.03336
;WIDTH:0.899999
G1 X127.212 Y121.001 E.03444
G1 X127.539 Y121.253 E.04303
G1 X127.79 Y121.625 E.04677
G1 X127.896 Y121.975 E.03811
G1 X127.896 Y122.42 E.04638
G1 X127.847 Y122.669 E.02645
G1 X127.711 Y122.988 E.03614
G1 X127.512 Y123.27 E.03597
G1 X127.161 Y123.566 E.04785
G1 X126.719 Y123.769 E.05069
G1 X126.28 Y123.825 E.04612
G1 X125.916 Y123.775 E.03829
G1 X125.579 Y123.632 E.03815
G1 X125.303 Y123.416 E.03653
G1 X125.068 Y123.092 E.04172
G1 X124.975 Y122.774 E.03453
;WIDTH:0.870784
G1 X124.882 Y122.455 E.03342
;WIDTH:0.841569
G1 X124.919 Y121.879 E.05595
;WIDTH:0.811345
G1 X125.095 Y121.646 E.0272
;WIDTH:0.780365
G1 X125.27 Y121.413 E.02602
G1 X125.033 Y121.583 E.02605
;WIDTH:0.811342
G1 X124.796 Y121.753 E.02717
;WIDTH:0.819914
G1 X124.368 Y121.787 E.04046
G1 X124.113 Y121.638 E.02783
;WIDTH:0.786203
G1 X123.859 Y121.488 E.02656
;WIDTH:0.752493
G1 X123.796 Y121.433 E.00718
;WIDTH:0.77062
G1 X123.935 Y121.653 E.02292
;WIDTH:0.79686
G1 X124.074 Y121.872 E.0237
;WIDTH:0.819914
G1 X124.135 Y122.013 E.01448
;WIDTH:0.858751
G1 X124.092 Y122.582 E.05654
;WIDTH:0.899999
G1 X123.831 Y123.204 E.0703
G1 X123.545 Y123.508 E.0435
G1 X123.124 Y123.718 E.04903
G1 X122.767 Y123.78 E.03776
G1 X122.42 Y123.753 E.03627
G1 X122.087 Y123.653 E.03624
G1 X121.736 Y123.443 E.04263
G1 X121.458 Y123.172 E.04046
G1 X121.205 Y122.749 E.05137
G1 X121.101 Y122.285 E.04956
G1 X121.107 Y121.96 E.03388
G1 X121.203 Y121.613 E.03752
G1 X121.387 Y121.295 E.03829
G1 X121.661 Y121.035 E.03937
G1 X121.959 Y120.884 E.03482
;WIDTH:0.897781
G1 X122.275 Y120.812 E.03369
;WIDTH:0.860308
G1 X122.591 Y120.741 E.03215
;WIDTH:0.822835
G1 X122.935 Y120.752 E.03256
;WIDTH:0.809008
G1 X123.171 Y120.893 E.02553
;WIDTH:0.781207
G1 X123.407 Y121.034 E.02458
G1 X123.273 Y120.795 E.0245
;WIDTH:0.809008
G1 X123.138 Y120.555 E.02557
G1 X123.177 Y120.089 E.04343
;WIDTH:0.804244
G1 X123.351 Y119.856 E.02684
;WIDTH:0.77655
G1 X123.525 Y119.623 E.02583
G1 X123.288 Y119.791 E.0258
;WIDTH:0.804244
G1 X123.051 Y119.959 E.02681
;WIDTH:0.822835
G1 X122.547 Y119.994 E.04779
;WIDTH:0.860308
G1 X122.272 Y119.916 E.02838
;WIDTH:0.897781
G1 X121.997 Y119.839 E.02968
;WIDTH:0.899999
G1 X121.708 Y119.703 E.03329
G1 X121.457 Y119.465 E.03605
G1 X121.264 Y119.159 E.03771
G1 X121.158 Y118.809 E.03811
G1 X121.143 Y118.459 E.03651
G1 X121.219 Y118.084 E.03988
G1 X121.376 Y117.747 E.03875
G1 X121.619 Y117.439 E.04089
G1 X122.024 Y117.136 E.05272
G1 X122.635 Y116.969 E.06602
G1 X123.094 Y116.995 E.04792
G1 X123.475 Y117.152 E.04295
G1 X123.751 Y117.368 E.03653
G1 X123.981 Y117.677 E.04015
G1 X124.145 Y118.187 E.05583
;WIDTH:0.86187
G1 X124.172 Y118.77 E.05805
;WIDTH:0.812071
G1 X124.086 Y119.077 E.02973
G1 X124.549 Y118.992 E.0439
G1 X124.966 Y119.099 E.04015
;WIDTH:0.795328
G1 X125.113 Y119.197 E.01611
;WIDTH:0.80779
G1 X124.953 Y118.922 E.0295
;WIDTH:0.842257
G1 X124.935 Y118.342 E.0563
;WIDTH:0.882083
G1 X124.984 Y118.126 E.02259
;WIDTH:0.899999
G1 X125.223 Y117.58 E.06212
G1 X125.51 Y117.276 E.04357
G1 X125.879 Y117.113 E.04204
G1 X126.287 Y117.005 E.04399
G1 X126.691 Y117.046 E.04232
G1 X126.967 Y117.131 E.0301
G1 X127.269 Y117.3 E.03607
G1 X127.529 Y117.527 E.03597
G1 X127.735 Y117.804 E.03598
G1 X127.88 Y118.121 E.03633
G1 X127.953 Y118.461 E.03624
G1 X127.947 Y118.824 E.03784
G1 X127.851 Y119.171 E.03752
G1 X127.667 Y119.49 E.03838
G1 X127.356 Y119.768 E.04348
G1 X126.727 Y120.012 E.07032
;WIDTH:0.857235
G1 X126.157 Y120.038 E.05643
;WIDTH:0.811887
G1 X126.007 Y120.005 E.01432
;WIDTH:0.808318
G1 X125.841 Y119.902 E.01813
M204 S1000
;WIPE_START
G1 F8640
G1 X125.876 Y120.108 E-.04825
G1 X125.931 Y120.444 E-.07862
G1 X125.831 Y120.867 E-.10036
G1 X126.278 Y120.779 E-.10519
G1 X126.581 Y120.8 E-.07013
G1 X126.897 Y120.901 E-.0766
G1 X127.212 Y121.001 E-.07631
G1 X127.539 Y121.253 E-.09532
G1 X127.658 Y121.43 E-.04922
;WIPE_END
G1 Z.55 F720
G1 X129.165 Y111.985 F10800
G1 Z.3 F720
G1 E.7 F1200
M204 S800
;TYPE:Solid infill
;WIDTH:0.902867
